;FLAVOR:Marlin
;TIME:2709
;Filament used: 1.1943m
;Layer height: 0.1
;MINX:89.011
;MINY:90.34
;MINZ:0.2
;MAXX:130.983
;MAXY:129.66
;MAXZ:16
;Generated with Cura_SteamEngine 4.5.0
M140 S50
M105
M190 S50
M104 S200
M105
M109 S200
M82 ;absolute extrusion mode
M201 X500.00 Y500.00 Z100.00 E5000.00 ;Setup machine max acceleration
M203 X500.00 Y500.00 Z10.00 E50.00 ;Setup machine max feedrate
M204 P500.00 R1000.00 T500.00 ;Setup Print/Retract/Travel acceleration
M205 X8.00 Y8.00 Z0.40 E5.00 ;Setup Jerk
M220 S100 ;Reset Feedrate
M221 S100 ;Reset Flowrate

G28 ;Home

G92 E0 ;Reset Extruder
G1 Z2.0 F3000 ;Move Z Axis up
G1 X10.1 Y20 Z0.28 F5000.0 ;Move to start position
G1 X10.1 Y200.0 Z0.28 F1500.0 E15 ;Draw the first line
G1 X10.4 Y200.0 Z0.28 F5000.0 ;Move to side a little
G1 X10.4 Y20 Z0.28 F1500.0 E30 ;Draw the second line
G92 E0 ;Reset Extruder
G1 Z2.0 F3000 ;Move Z Axis up

G92 E0
G92 E0
G1 F2700 E-5
;LAYER_COUNT:159
;LAYER:0
M107
G0 F6000 X97.294 Y93.507 Z0.2
;TYPE:SKIRT
G1 F2700 E0
G1 F1200 X97.99 Y92.878 E0.0312
G1 X98.737 Y92.311 E0.06239
G1 X99.53 Y91.81 E0.09359
G1 X100.362 Y91.379 E0.12476
G1 X101.229 Y91.019 E0.15598
G1 X102.123 Y90.735 E0.18718
G1 X103.037 Y90.528 E0.21835
G1 X103.966 Y90.4 E0.24954
G1 X104.829 Y90.352 E0.27829
G1 X105.693 Y90.34 E0.30703
G1 X114.45 Y90.341 E0.59829
G1 X115.151 Y90.351 E0.6216
G1 X116.087 Y90.404 E0.65278
G1 X117.016 Y90.537 E0.684
G1 X117.929 Y90.749 E0.71517
G1 X118.822 Y91.037 E0.74638
G1 X119.686 Y91.401 E0.77756
G1 X120.517 Y91.837 E0.80878
G1 X121.307 Y92.342 E0.83996
G1 X122.051 Y92.912 E0.87113
G1 X122.744 Y93.544 E0.90233
G1 X123.381 Y94.233 E0.93354
G1 X123.957 Y94.973 E0.96473
G1 X124.439 Y95.711 E0.99405
G1 X124.884 Y96.458 E1.02297
G1 X129.259 Y104.039 E1.31409
G1 X129.579 Y104.61 E1.33586
G1 X130.002 Y105.447 E1.36705
G1 X130.352 Y106.317 E1.39824
G1 X130.627 Y107.214 E1.42944
G1 X130.825 Y108.131 E1.46065
G1 X130.944 Y109.061 E1.49183
G1 X130.983 Y109.998 E1.52302
G1 X130.942 Y110.935 E1.55422
G1 X130.822 Y111.865 E1.58541
G1 X130.622 Y112.782 E1.61662
G1 X130.346 Y113.678 E1.6478
G1 X129.994 Y114.547 E1.67899
G1 X129.666 Y115.207 E1.7035
G1 X129.17 Y116.117 E1.73797
G1 X124.829 Y123.635 E2.02671
G1 X124.446 Y124.278 E2.05161
G1 X123.932 Y125.063 E2.08281
G1 X123.353 Y125.801 E2.11401
G1 X122.713 Y126.487 E2.14522
G1 X122.018 Y127.116 E2.17639
G1 X121.271 Y127.683 E2.20759
G1 X120.478 Y128.185 E2.2388
G1 X119.646 Y128.617 E2.26998
G1 X118.78 Y128.977 E2.30117
G1 X117.887 Y129.262 E2.33235
G1 X116.972 Y129.47 E2.36356
G1 X116.043 Y129.599 E2.39476
G1 X115.171 Y129.648 E2.42381
G1 X114.307 Y129.66 E2.45254
G1 X105.549 Y129.659 E2.74384
G1 X104.851 Y129.649 E2.76706
G1 X103.915 Y129.595 E2.79824
G1 X102.987 Y129.463 E2.82941
G1 X102.073 Y129.251 E2.86062
G1 X101.181 Y128.962 E2.89181
G1 X100.316 Y128.599 E2.92301
G1 X99.486 Y128.163 E2.95419
G1 X98.695 Y127.658 E2.9854
G1 X97.951 Y127.087 E3.0166
G1 X97.258 Y126.455 E3.04779
G1 X96.621 Y125.767 E3.07898
G1 X96.046 Y125.026 E3.11017
G1 X95.58 Y124.316 E3.13842
G1 X95.095 Y123.505 E3.16985
G1 X90.74 Y115.959 E3.45963
G1 X90.414 Y115.377 E3.48182
G1 X89.991 Y114.54 E3.51301
G1 X89.641 Y113.67 E3.5442
G1 X89.366 Y112.773 E3.5754
G1 X89.169 Y111.856 E3.6066
G1 X89.05 Y110.926 E3.63778
G1 X89.011 Y109.989 E3.66897
G1 X89.052 Y109.052 E3.70017
G1 X89.173 Y108.122 E3.73136
G1 X89.372 Y107.205 E3.76257
G1 X89.649 Y106.309 E3.79376
G1 X90.001 Y105.44 E3.82495
G1 X90.406 Y104.639 E3.8548
G1 X90.83 Y103.882 E3.88366
G1 X95.22 Y96.282 E4.17558
G1 X95.559 Y95.714 E4.19758
G1 X96.074 Y94.929 E4.2288
G1 X96.653 Y94.192 E4.25998
G1 X97.294 Y93.507 E4.29118
G0 F6000 X97.61 Y93.756
G1 F1200 X98.297 Y93.143 E4.3218
G1 X99.035 Y92.592 E4.35244
G1 X99.817 Y92.107 E4.38304
G1 X100.639 Y91.692 E4.41367
G1 X101.493 Y91.35 E4.44427
G1 X102.375 Y91.083 E4.47492
G1 X103.275 Y90.893 E4.50551
G1 X104.189 Y90.782 E4.53613
G1 X104.836 Y90.752 E4.55767
G1 X105.693 Y90.74 E4.58618
G1 X114.444 Y90.741 E4.87724
G1 X115.145 Y90.751 E4.90056
G1 X116.064 Y90.804 E4.93118
G1 X116.975 Y90.937 E4.9618
G1 X117.871 Y91.148 E4.99241
G1 X118.746 Y91.436 E5.02305
G1 X119.592 Y91.799 E5.05367
G1 X120.403 Y92.234 E5.08428
G1 X121.174 Y92.738 E5.11492
G1 X121.898 Y93.307 E5.14554
G1 X122.57 Y93.936 E5.17616
G1 X123.185 Y94.621 E5.20678
G1 X123.738 Y95.357 E5.23739
G1 X124.095 Y95.916 E5.25946
G1 X124.537 Y96.658 E5.28818
G1 X128.91 Y104.235 E5.57915
G1 X129.23 Y104.806 E5.60092
G1 X129.645 Y105.628 E5.63155
G1 X129.987 Y106.483 E5.66218
G1 X130.253 Y107.364 E5.69279
G1 X130.442 Y108.265 E5.72341
G1 X130.552 Y109.179 E5.75403
G1 X130.582 Y110.099 E5.78464
G1 X130.533 Y111.018 E5.81525
G1 X130.404 Y111.93 E5.84589
G1 X130.196 Y112.827 E5.87651
G1 X129.911 Y113.702 E5.90712
G1 X129.551 Y114.55 E5.93776
G1 X129.314 Y115.017 E5.95518
G1 X128.824 Y115.917 E5.98926
G1 X124.485 Y123.43 E6.27783
G1 X124.102 Y124.073 E6.30272
G1 X123.597 Y124.843 E6.33334
G1 X123.027 Y125.566 E6.36397
G1 X122.396 Y126.237 E6.3946
G1 X121.71 Y126.851 E6.42522
G1 X120.973 Y127.402 E6.45583
G1 X120.191 Y127.888 E6.48645
G1 X119.37 Y128.304 E6.51706
G1 X118.515 Y128.647 E6.5477
G1 X117.634 Y128.915 E6.57833
G1 X116.734 Y129.105 E6.60893
G1 X115.82 Y129.217 E6.63955
G1 X115.164 Y129.248 E6.6614
G1 X114.307 Y129.26 E6.6899
G1 X105.555 Y129.259 E6.981
G1 X104.857 Y129.249 E7.00421
G1 X103.938 Y129.196 E7.03483
G1 X103.027 Y129.063 E7.06545
G1 X102.131 Y128.852 E7.09607
G1 X101.257 Y128.564 E7.12667
G1 X100.41 Y128.201 E7.15732
G1 X99.599 Y127.766 E7.18793
G1 X98.829 Y127.262 E7.21854
G1 X98.105 Y126.693 E7.24917
G1 X97.433 Y126.063 E7.27981
G1 X96.818 Y125.378 E7.31042
G1 X96.265 Y124.642 E7.34104
G1 X95.923 Y124.11 E7.36208
G1 X95.442 Y123.305 E7.39327
G1 X91.089 Y115.763 E7.6829
G1 X90.763 Y115.181 E7.70509
G1 X90.348 Y114.359 E7.73571
G1 X90.007 Y113.504 E7.76633
G1 X89.74 Y112.623 E7.79695
G1 X89.552 Y111.722 E7.82756
G1 X89.442 Y110.808 E7.85818
G1 X89.412 Y109.888 E7.8888
G1 X89.461 Y108.968 E7.91944
G1 X89.591 Y108.057 E7.95005
G1 X89.799 Y107.16 E7.98067
G1 X90.084 Y106.285 E8.01128
G1 X90.444 Y105.437 E8.04192
G1 X90.756 Y104.834 E8.0645
G1 X91.176 Y104.082 E8.09315
G1 X95.564 Y96.487 E8.38489
G1 X95.903 Y95.919 E8.40689
G1 X96.409 Y95.149 E8.43754
G1 X96.979 Y94.427 E8.46813
G1 X97.61 Y93.756 E8.49877
G0 F6000 X97.926 Y94.007
G1 F1200 X98.604 Y93.41 E8.52881
G1 X99.331 Y92.875 E8.55883
G1 X100.103 Y92.406 E8.58888
G1 X100.914 Y92.007 E8.61894
G1 X101.756 Y91.682 E8.64896
G1 X102.624 Y91.433 E8.67899
G1 X103.511 Y91.261 E8.70904
G1 X104.842 Y91.152 E8.75346
G1 X105.693 Y91.14 E8.78177
G1 X114.438 Y91.141 E9.07263
G1 X115.139 Y91.151 E9.09595
G1 X116.041 Y91.204 E9.126
G1 X116.934 Y91.336 E9.15602
G1 X117.813 Y91.547 E9.18609
G1 X118.669 Y91.835 E9.21613
G1 X119.496 Y92.197 E9.24615
G1 X120.288 Y92.631 E9.27619
G1 X121.038 Y93.134 E9.30623
G1 X121.741 Y93.701 E9.33627
G1 X122.391 Y94.327 E9.36628
G1 X122.984 Y95.009 E9.39634
G1 X123.752 Y96.121 E9.44129
G1 X124.191 Y96.858 E9.46982
G1 X128.561 Y104.43 E9.7606
G1 X128.881 Y105.001 E9.78237
G1 X129.287 Y105.808 E9.81242
G1 X129.62 Y106.647 E9.84244
G1 X129.878 Y107.513 E9.87249
G1 X130.058 Y108.398 E9.90253
G1 X130.159 Y109.295 E9.93255
G1 X130.181 Y110.198 E9.9626
G1 X130.122 Y111.099 E9.99263
G1 X129.984 Y111.992 E10.02268
G1 X129.768 Y112.869 E10.05272
G1 X129.475 Y113.723 E10.08275
G1 X128.962 Y114.827 E10.12324
G1 X128.477 Y115.717 E10.15695
G1 X124.141 Y123.226 E10.44535
G1 X123.758 Y123.869 E10.47024
G1 X123.262 Y124.623 E10.50026
G1 X122.701 Y125.331 E10.53031
G1 X122.08 Y125.987 E10.56035
G1 X121.403 Y126.585 E10.59039
G1 X120.676 Y127.12 E10.62042
G1 X119.905 Y127.59 E10.65045
G1 X119.095 Y127.989 E10.68048
G1 X118.252 Y128.315 E10.71054
G1 X117.385 Y128.565 E10.74055
G1 X116.498 Y128.738 E10.77061
G1 X115.158 Y128.848 E10.81533
G1 X114.307 Y128.86 E10.84364
G1 X105.561 Y128.859 E11.13453
G1 X104.863 Y128.849 E11.15775
G1 X103.961 Y128.796 E11.1878
G1 X103.068 Y128.664 E11.21783
G1 X102.19 Y128.453 E11.24786
G1 X101.334 Y128.165 E11.2779
G1 X100.507 Y127.803 E11.30792
G1 X99.715 Y127.368 E11.33798
G1 X98.964 Y126.866 E11.36802
G1 X98.261 Y126.299 E11.39806
G1 X97.611 Y125.672 E11.4281
G1 X97.019 Y124.99 E11.45814
G1 X96.266 Y123.904 E11.50209
G1 X95.788 Y123.105 E11.53306
G1 X91.438 Y115.568 E11.8225
G1 X91.112 Y114.986 E11.84468
G1 X90.706 Y114.179 E11.87473
G1 X90.373 Y113.34 E11.90475
G1 X90.115 Y112.474 E11.93481
G1 X89.935 Y111.589 E11.96484
G1 X89.834 Y110.692 E11.99487
G1 X89.813 Y109.789 E12.02491
G1 X89.872 Y108.887 E12.05497
G1 X90.01 Y107.995 E12.08499
G1 X90.227 Y107.118 E12.11504
G1 X90.52 Y106.264 E12.14507
G1 X90.888 Y105.439 E12.17512
G1 X91.105 Y105.029 E12.19055
G1 X91.523 Y104.282 E12.21902
G1 X95.907 Y96.692 E12.51055
G1 X96.246 Y96.124 E12.53255
G1 X96.743 Y95.369 E12.56261
G1 X97.305 Y94.662 E12.59265
G1 X97.926 Y94.007 E12.62267
G1 F2700 E7.62267
;MESH:Adjustment Screw.stl
G0 F6000 X104.304 Y101.217
G0 X105.24 Y101.757
G0 X114.321 Y102.516
G0 X118.644 Y110
G0 X114.423 Y117.66
;TYPE:WALL-INNER
G1 F2700 E12.62267
G1 F1200 X105.577 Y117.66 E12.91689
G1 X101.153 Y110 E13.2111
G1 X105.577 Y102.34 E13.50531
G1 X114.423 Y102.34 E13.79953
G1 X118.847 Y110 E14.09374
G1 X114.423 Y117.66 E14.38795
G0 F6000 X114.654 Y118.06
G1 F1200 X105.346 Y118.06 E14.69754
G1 X100.808 Y110.2 E14.99941
G1 X100.692 Y110 E15.0071
G1 X105.346 Y101.94 E15.31665
G1 X114.654 Y101.94 E15.62624
G1 X119.192 Y109.8 E15.92811
G1 X119.308 Y110 E15.9358
G1 X114.654 Y118.06 E16.24535
G0 F6000 X114.885 Y118.46
;TYPE:WALL-OUTER
G1 F1200 X105.115 Y118.46 E16.57031
G1 X100.231 Y110 E16.89521
G1 X105.115 Y101.54 E17.22011
G1 X114.885 Y101.54 E17.54507
G1 X119.769 Y110 E17.86997
G1 X114.885 Y118.46 E18.19487
G0 F6000 X114.665 Y118.02
G0 X114.198 Y117.27
;TYPE:SKIN
G1 F1200 X105.802 Y117.27 E18.47413
G1 X101.604 Y110 E18.75335
G1 X105.802 Y102.73 E19.03256
G1 X114.198 Y102.73 E19.31182
G1 X118.396 Y110 E19.59104
G1 X114.198 Y117.27 E19.87025
G0 F6000 X114.439 Y117.411
G0 X114.373 Y117.451
G0 X106.36 Y117.55
G0 X106.36 Y117.108
G1 F1200 X105.255 Y116.003 E19.92223
G0 F6000 X104.874 Y116.223
G0 X104.101 Y114.884
G0 X104.482 Y114.665
G1 F1200 X106.926 Y117.108 E20.03717
G0 F6000 X107.492 Y117.108
G1 F1200 X103.709 Y113.326 E20.21508
G0 F6000 X103.328 Y113.545
G0 X102.555 Y112.207
G0 X102.936 Y111.987
G1 F1200 X108.057 Y117.108 E20.45596
G0 F6000 X108.623 Y117.108
G1 F1200 X102.163 Y110.648 E20.75982
G0 F6000 X101.894 Y109.814
G1 F1200 X109.189 Y117.108 E21.10293
G0 F6000 X109.754 Y117.108
G1 F1200 X102.101 Y109.455 E21.4629
G0 F6000 X102.309 Y109.097
G1 F1200 X110.32 Y117.108 E21.83971
G0 F6000 X110.886 Y117.108
G1 F1200 X102.516 Y108.738 E22.23341
G0 F6000 X102.723 Y108.38
G1 F1200 X111.452 Y117.108 E22.64398
G0 F6000 X112.017 Y117.108
G1 F1200 X102.929 Y108.021 E23.07142
G0 F6000 X103.137 Y107.662
G1 F1200 X112.583 Y117.108 E23.51573
G0 F6000 X113.149 Y117.108
G1 F1200 X103.344 Y107.304 E23.97691
G0 F6000 X103.551 Y106.945
G1 F1200 X113.714 Y117.108 E24.45494
G0 F6000 X114.17 Y116.998
G1 F1200 X103.758 Y106.587 E24.94467
G0 F6000 X103.965 Y106.227
G1 F1200 X114.377 Y116.64 E25.43444
G0 F6000 X114.584 Y116.281
G1 F1200 X104.172 Y105.869 E25.92419
G0 F6000 X104.379 Y105.51
G1 F1200 X114.791 Y115.923 E26.41396
G0 F6000 X114.998 Y115.564
G1 F1200 X104.586 Y105.152 E26.90371
G0 F6000 X104.793 Y104.793
G1 F1200 X115.205 Y115.205 E27.39346
G0 F6000 X115.412 Y114.846
G1 F1200 X105 Y104.434 E27.88321
G0 F6000 X105.207 Y104.076
G1 F1200 X115.619 Y114.488 E28.37296
G0 F6000 X115.826 Y114.129
G1 F1200 X105.414 Y103.717 E28.86271
G0 F6000 X105.621 Y103.359
G1 F1200 X116.034 Y113.771 E29.35248
G0 F6000 X116.24 Y113.412
G1 F1200 X105.829 Y103 E29.8422
G0 F6000 X106.284 Y102.89
G1 F1200 X116.447 Y113.053 E30.32024
G0 F6000 X116.654 Y112.695
G1 F1200 X106.85 Y102.89 E30.78141
G0 F6000 X107.415 Y102.89
G1 F1200 X116.862 Y112.336 E31.22575
G0 F6000 X117.069 Y111.978
G1 F1200 X107.981 Y102.89 E31.65322
G0 F6000 X108.547 Y102.89
G1 F1200 X117.275 Y111.618 E32.06376
G0 F6000 X117.482 Y111.26
G1 F1200 X109.112 Y102.89 E32.45746
G0 F6000 X109.678 Y102.89
G1 F1200 X117.69 Y110.901 E32.83429
G0 F6000 X117.897 Y110.543
G1 F1200 X110.244 Y102.89 E33.19427
G0 F6000 X110.809 Y102.89
G1 F1200 X118.104 Y110.184 E33.53738
G0 F6000 X117.835 Y109.35
G1 F1200 X111.375 Y102.89 E33.84124
G0 F6000 X111.941 Y102.89
G1 F1200 X117.062 Y108.011 E34.08211
G0 F6000 X117.444 Y107.791
G0 X116.67 Y106.452
G0 X116.289 Y106.672
G1 F1200 X112.507 Y102.89 E34.26001
G0 F6000 X113.072 Y102.89
G1 F1200 X115.516 Y105.334 E34.37496
G0 F6000 X115.898 Y105.114
G0 X115.125 Y103.775
G0 X114.743 Y103.995
G1 F1200 X113.638 Y102.89 E34.42694
G0 F6000 X113.638 Y102.15
;MESH:NONMESH
G0 F300 X113.638 Y102.15 Z0.3
G0 F6000 X114.321 Y102.516
G0 X118.644 Y110
G0 X114.423 Y117.66
;TIME_ELAPSED:61.962325
;LAYER:1
M140 S50
M106 S85
;TYPE:WALL-INNER
;MESH:Adjustment Screw.stl
G1 F1800 X105.577 Y117.66 E34.57405
G1 X101.153 Y110 E34.72115
G1 X105.577 Y102.34 E34.86826
G1 X114.423 Y102.34 E35.01537
G1 X118.847 Y110 E35.16247
G1 X114.423 Y117.66 E35.30958
G0 F9000 X114.654 Y118.06
G1 F1800 X105.346 Y118.06 E35.46437
G1 X100.808 Y110.2 E35.61531
G1 X100.692 Y110 E35.61915
G1 X105.346 Y101.94 E35.77393
G1 X114.654 Y101.94 E35.92872
G1 X119.192 Y109.8 E36.07966
G1 X119.308 Y110 E36.0835
G1 X114.654 Y118.06 E36.23828
G0 F9000 X114.885 Y118.46
;TYPE:WALL-OUTER
G1 F1800 X105.115 Y118.46 E36.40076
G1 X100.231 Y110 E36.56321
G1 X105.115 Y101.54 E36.72566
G1 X114.885 Y101.54 E36.88814
G1 X119.769 Y110 E37.05059
G1 X114.885 Y118.46 E37.21304
G0 F9000 X114.665 Y118.02
G0 X114.198 Y117.27
;TYPE:SKIN
G1 F1800 X105.802 Y117.27 E37.35267
G1 X101.604 Y110 E37.49228
G1 X105.802 Y102.73 E37.63189
G1 X114.198 Y102.73 E37.77151
G1 X118.396 Y110 E37.91112
G1 X114.198 Y117.27 E38.05073
G0 F9000 X113.69 Y117.109
G1 F1800 X114.673 Y116.126 E38.07385
G0 F9000 X115.054 Y116.347
G0 X115.826 Y115.009
G0 X115.445 Y114.788
G1 F1800 X113.124 Y117.109 E38.12844
G0 F9000 X112.558 Y117.109
G1 F1800 X116.218 Y113.449 E38.21451
G0 F9000 X116.599 Y113.67
G0 X117.372 Y112.332
G0 X116.991 Y112.111
G1 F1800 X111.992 Y117.109 E38.33207
G0 F9000 X111.427 Y117.109
G1 F1800 X117.763 Y110.773 E38.48108
G0 F9000 X118.122 Y109.848
G1 F1800 X110.861 Y117.109 E38.65185
G0 F9000 X110.295 Y117.109
G1 F1800 X117.915 Y109.489 E38.83106
G0 F9000 X117.708 Y109.131
G1 F1800 X109.73 Y117.109 E39.01869
G0 F9000 X109.164 Y117.109
G1 F1800 X117.501 Y108.772 E39.21477
G0 F9000 X117.294 Y108.414
G1 F1800 X108.598 Y117.109 E39.41927
G0 F9000 X108.033 Y117.109
G1 F1800 X117.086 Y108.055 E39.63219
G0 F9000 X116.88 Y107.696
G1 F1800 X107.467 Y117.109 E39.85357
G0 F9000 X106.901 Y117.109
G1 F1800 X116.673 Y107.338 E40.08338
G0 F9000 X116.466 Y106.979
G1 F1800 X106.336 Y117.109 E40.32163
G0 F9000 X105.849 Y117.03
G1 F1800 X116.258 Y106.621 E40.56643
G0 F9000 X116.051 Y106.262
G1 F1800 X105.642 Y116.671 E40.81123
G0 F9000 X105.435 Y116.313
G1 F1800 X115.844 Y105.904 E41.05604
G0 F9000 X115.637 Y105.545
G1 F1800 X105.228 Y115.954 E41.30084
G0 F9000 X105.02 Y115.596
G1 F1800 X115.43 Y105.186 E41.54567
G0 F9000 X115.223 Y104.827
G1 F1800 X104.813 Y115.237 E41.7905
G0 F9000 X104.607 Y114.878
G1 F1800 X115.016 Y104.469 E42.0353
G0 F9000 X114.809 Y104.11
G1 F1800 X104.4 Y114.52 E42.28012
G0 F9000 X104.192 Y114.161
G1 F1800 X114.602 Y103.752 E42.52493
G0 F9000 X114.395 Y103.393
G1 F1800 X103.985 Y113.803 E42.76976
G0 F9000 X103.778 Y113.444
G1 F1800 X114.187 Y103.035 E43.01456
G0 F9000 X113.767 Y102.889
G1 F1800 X103.571 Y113.086 E43.25437
G0 F9000 X103.364 Y112.727
G1 F1800 X113.202 Y102.889 E43.48574
G0 F9000 X112.636 Y102.889
G1 F1800 X103.157 Y112.368 E43.70867
G0 F9000 X102.95 Y112.009
G1 F1800 X112.07 Y102.889 E43.92316
G0 F9000 X111.505 Y102.889
G1 F1800 X102.743 Y111.651 E44.12923
G0 F9000 X102.536 Y111.292
G1 F1800 X110.939 Y102.889 E44.32686
G0 F9000 X110.373 Y102.889
G1 F1800 X102.328 Y110.934 E44.51606
G0 F9000 X102.121 Y110.575
G1 F1800 X109.808 Y102.889 E44.69684
G0 F9000 X109.242 Y102.889
G1 F1800 X101.914 Y110.217 E44.86918
G0 F9000 X102.092 Y109.474
