;FLAVOR:Marlin
;TIME:861
;Filament used: 0.551908m
;Layer height: 0.2
;MINX:89.018
;MINY:89.015
;MINZ:0.2
;MAXX:130.988
;MAXY:130.985
;MAXZ:12
;Generated with Cura_SteamEngine 4.5.0
M140 S50
M105
M190 S50
M104 S200
M105
M109 S200
M82 ;absolute extrusion mode
M201 X500.00 Y500.00 Z100.00 E5000.00 ;Setup machine max acceleration
M203 X500.00 Y500.00 Z10.00 E50.00 ;Setup machine max feedrate
M204 P500.00 R1000.00 T500.00 ;Setup Print/Retract/Travel acceleration
M205 X8.00 Y8.00 Z0.40 E5.00 ;Setup Jerk
M220 S100 ;Reset Feedrate
M221 S100 ;Reset Flowrate

G28 ;Home

G92 E0 ;Reset Extruder
G1 Z2.0 F3000 ;Move Z Axis up
G1 X10.1 Y20 Z0.28 F5000.0 ;Move to start position
G1 X10.1 Y200.0 Z0.28 F1500.0 E15 ;Draw the first line
G1 X10.4 Y200.0 Z0.28 F5000.0 ;Move to side a little
G1 X10.4 Y20 Z0.28 F1500.0 E30 ;Draw the second line
G92 E0 ;Reset Extruder
G1 Z2.0 F3000 ;Move Z Axis up

G92 E0
G92 E0
G1 F2700 E-5
;LAYER_COUNT:60
;LAYER:0
M107
G0 F6000 X94.977 Y95.349 Z0.2
;TYPE:SKIRT
G1 F2700 E0
G1 F1200 X95.484 Y94.847 E0.02373
G1 X95.948 Y94.416 E0.04479
G1 X96.43 Y93.993 E0.06612
G1 X96.872 Y93.628 E0.08519
G1 X97.41 Y93.211 E0.10783
G1 X97.933 Y92.831 E0.12933
G1 X98.545 Y92.417 E0.15391
G1 X99.097 Y92.07 E0.17559
G1 X99.687 Y91.724 E0.19834
G1 X100.221 Y91.433 E0.21857
G1 X100.767 Y91.155 E0.23895
G1 X101.283 Y90.91 E0.25794
G1 X101.968 Y90.613 E0.28278
G1 X102.615 Y90.358 E0.30591
G1 X103.225 Y90.138 E0.32747
G1 X103.738 Y89.97 E0.34543
G1 X104.414 Y89.773 E0.36885
G1 X105.108 Y89.594 E0.39269
G1 X105.79 Y89.441 E0.41593
G1 X106.329 Y89.338 E0.43418
G1 X106.964 Y89.235 E0.45558
G1 X107.597 Y89.152 E0.47681
G1 X108.301 Y89.083 E0.50034
G1 X108.936 Y89.041 E0.52151
G1 X109.627 Y89.017 E0.54451
G1 X110.251 Y89.015 E0.56526
G1 X110.915 Y89.033 E0.58735
G1 X111.474 Y89.065 E0.60598
G1 X112.15 Y89.125 E0.62855
G1 X112.811 Y89.204 E0.65069
G1 X113.481 Y89.305 E0.67323
G1 X114.1 Y89.418 E0.69415
G1 X114.789 Y89.566 E0.71759
G1 X115.362 Y89.709 E0.73723
G1 X116.006 Y89.891 E0.75949
G1 X116.634 Y90.089 E0.78139
G1 X117.308 Y90.326 E0.80516
G1 X117.859 Y90.54 E0.82482
G1 X118.454 Y90.791 E0.8463
G1 X119.02 Y91.05 E0.867
G1 X119.617 Y91.346 E0.88916
G1 X120.163 Y91.637 E0.90974
G1 X120.804 Y92.007 E0.93436
G1 X121.366 Y92.357 E0.95638
G1 X121.925 Y92.729 E0.97871
G1 X122.392 Y93.061 E0.99777
G1 X122.936 Y93.473 E1.02046
G1 X123.48 Y93.913 E1.04374
G1 X124.018 Y94.378 E1.06739
G1 X124.402 Y94.732 E1.08476
G1 X124.854 Y95.174 E1.10578
G1 X125.32 Y95.656 E1.12808
G1 X125.798 Y96.183 E1.15175
G1 X126.197 Y96.653 E1.17225
G1 X126.615 Y97.178 E1.19457
G1 X126.991 Y97.68 E1.21543
G1 X127.384 Y98.239 E1.23816
G1 X127.72 Y98.751 E1.25853
G1 X128.097 Y99.37 E1.28264
G1 X128.424 Y99.948 E1.30472
G1 X128.738 Y100.544 E1.32713
G1 X128.991 Y101.063 E1.34633
G1 X129.256 Y101.651 E1.36778
G1 X129.489 Y102.21 E1.38793
G1 X129.741 Y102.874 E1.41155
G1 X129.955 Y103.498 E1.43349
G1 X130.158 Y104.156 E1.45639
G1 X130.313 Y104.721 E1.47588
G1 X130.463 Y105.336 E1.49693
G1 X130.591 Y105.936 E1.51734
G1 X130.719 Y106.649 E1.54143
G1 X130.818 Y107.33 E1.56432
G1 X130.897 Y108.032 E1.58782
G1 X130.942 Y108.593 E1.60654
G1 X130.974 Y109.231 E1.62778
G1 X130.988 Y109.867 E1.64894
G1 X130.981 Y110.589 E1.67296
G1 X130.953 Y111.23 E1.6943
G1 X130.902 Y111.906 E1.71684
G1 X130.841 Y112.483 E1.73614
G1 X130.75 Y113.149 E1.7585
G1 X130.639 Y113.81 E1.78079
G1 X130.506 Y114.475 E1.80335
G1 X130.376 Y115.035 E1.82247
G1 X130.197 Y115.71 E1.8457
G1 X130.013 Y116.323 E1.86698
G1 X129.801 Y116.957 E1.88922
G1 X129.58 Y117.558 E1.91052
G1 X129.322 Y118.199 E1.9335
G1 X129.095 Y118.714 E1.95222
G1 X128.8 Y119.329 E1.9749
G1 X128.481 Y119.946 E1.998
G1 X128.13 Y120.574 E2.02193
G1 X127.811 Y121.103 E2.04248
G1 X127.443 Y121.673 E2.06505
G1 X127.104 Y122.164 E2.08489
G1 X126.71 Y122.699 E2.10699
G1 X126.326 Y123.189 E2.12769
G1 X125.888 Y123.714 E2.15044
G1 X125.47 Y124.184 E2.17136
G1 X124.984 Y124.696 E2.19483
G1 X124.544 Y125.131 E2.21541
G1 X124.079 Y125.565 E2.23657
G1 X123.644 Y125.948 E2.25585
G1 X123.096 Y126.4 E2.27947
G1 X122.557 Y126.816 E2.30212
G1 X122.008 Y127.214 E2.32467
G1 X121.558 Y127.519 E2.34275
G1 X120.989 Y127.879 E2.36515
G1 X120.396 Y128.23 E2.38807
G1 X119.786 Y128.566 E2.41123
G1 X119.252 Y128.838 E2.43116
G1 X118.635 Y129.128 E2.45384
G1 X118.07 Y129.373 E2.47432
G1 X117.439 Y129.624 E2.49691
G1 X116.848 Y129.838 E2.51781
G1 X116.166 Y130.06 E2.54167
G1 X115.521 Y130.247 E2.564
G1 X114.879 Y130.412 E2.58605
G1 X114.356 Y130.53 E2.60388
G1 X113.718 Y130.655 E2.62551
G1 X113.091 Y130.758 E2.64664
G1 X112.379 Y130.851 E2.67052
G1 X111.725 Y130.915 E2.69238
G1 X111.049 Y130.96 E2.71491
G1 X110.464 Y130.981 E2.73438
G1 X109.793 Y130.985 E2.7567
G1 X109.156 Y130.969 E2.77789
G1 X108.457 Y130.929 E2.80118
G1 X107.828 Y130.873 E2.82218
G1 X107.137 Y130.789 E2.84534
G1 X106.504 Y130.692 E2.86663
G1 X105.847 Y130.571 E2.88885
G1 X105.287 Y130.45 E2.90791
G1 X104.6 Y130.278 E2.93146
G1 X103.918 Y130.084 E2.95505
G1 X103.273 Y129.879 E2.97756
G1 X102.799 Y129.712 E2.99427
G1 X102.189 Y129.476 E3.01603
G1 X101.521 Y129.195 E3.04013
G1 X100.867 Y128.895 E3.06406
G1 X100.379 Y128.651 E3.08221
G1 X99.788 Y128.332 E3.10455
G1 X99.204 Y127.994 E3.12699
G1 X98.608 Y127.624 E3.15032
G1 X98.097 Y127.283 E3.17075
G1 X97.553 Y126.895 E3.19298
G1 X97.08 Y126.536 E3.21273
G1 X96.553 Y126.11 E3.23527
G1 X96.078 Y125.701 E3.25612
G1 X95.578 Y125.243 E3.27867
G1 X95.145 Y124.821 E3.29878
G1 X94.678 Y124.337 E3.32115
G1 X94.234 Y123.848 E3.34312
G1 X93.776 Y123.31 E3.36662
G1 X93.411 Y122.852 E3.38609
G1 X93.012 Y122.319 E3.40824
G1 X92.665 Y121.825 E3.42832
G1 X92.297 Y121.265 E3.4506
G1 X91.963 Y120.722 E3.47181
G1 X91.6 Y120.086 E3.49616
G1 X91.286 Y119.49 E3.51857
G1 X91 Y118.906 E3.5402
G1 X90.761 Y118.379 E3.55945
G1 X90.489 Y117.723 E3.58306
G1 X90.265 Y117.13 E3.60415
G1 X90.045 Y116.489 E3.62669
G1 X89.86 Y115.89 E3.64754
G1 X89.675 Y115.215 E3.67082
G1 X89.525 Y114.591 E3.69216
G1 X89.388 Y113.934 E3.71449
G1 X89.285 Y113.351 E3.73418
G1 X89.185 Y112.658 E3.75747
G1 X89.117 Y112.049 E3.77785
G1 X89.065 Y111.428 E3.79857
G1 X89.033 Y110.842 E3.81809
G1 X89.018 Y110.116 E3.84224
G1 X89.026 Y109.42 E3.8654
G1 X89.056 Y108.726 E3.8885
G1 X89.099 Y108.151 E3.90768
G1 X89.164 Y107.523 E3.92868
G1 X89.243 Y106.928 E3.94864
G1 X89.357 Y106.234 E3.97203
G1 X89.488 Y105.574 E3.99441
G1 X89.649 Y104.882 E4.01804
G1 X89.809 Y104.282 E4.0387
G1 X90.015 Y103.599 E4.06242
G1 X90.206 Y103.033 E4.08229
G1 X90.431 Y102.426 E4.10382
G1 X90.67 Y101.835 E4.12503
G1 X90.937 Y101.23 E4.14702
G1 X91.177 Y100.726 E4.16559
G1 X91.491 Y100.116 E4.18841
G1 X91.833 Y99.5 E4.21184
G1 X92.206 Y98.876 E4.23602
G1 X92.524 Y98.383 E4.25553
G1 X92.892 Y97.849 E4.2771
G1 X93.258 Y97.349 E4.29771
G1 X93.694 Y96.792 E4.32124
G1 X94.096 Y96.311 E4.34209
G1 X94.543 Y95.808 E4.36447
G1 X94.977 Y95.349 E4.38548
G0 F6000 X95.268 Y95.623
G1 F1200 X95.756 Y95.14 E4.40832
G1 X96.22 Y94.709 E4.42938
G1 X96.684 Y94.302 E4.44991
G1 X97.126 Y93.937 E4.46897
G1 X97.645 Y93.535 E4.49081
G1 X98.168 Y93.155 E4.51231
G1 X98.758 Y92.756 E4.536
G1 X99.31 Y92.409 E4.55769
G1 X99.879 Y92.075 E4.57963
G1 X100.413 Y91.784 E4.59986
G1 X100.939 Y91.517 E4.61948
G1 X101.455 Y91.272 E4.63848
G1 X102.114 Y90.985 E4.66238
G1 X102.761 Y90.73 E4.68551
G1 X103.349 Y90.518 E4.7063
G1 X103.862 Y90.35 E4.72426
G1 X104.514 Y90.16 E4.74684
G1 X105.208 Y89.981 E4.77068
G1 X105.865 Y89.833 E4.79308
G1 X106.404 Y89.73 E4.81133
G1 X107.016 Y89.632 E4.83195
G1 X107.649 Y89.549 E4.85318
G1 X108.327 Y89.482 E4.87584
G1 X108.962 Y89.44 E4.89701
G1 X109.628 Y89.417 E4.91917
G1 X110.252 Y89.415 E4.93993
G1 X110.892 Y89.432 E4.96122
G1 X111.451 Y89.464 E4.97984
G1 X112.103 Y89.522 E5.00161
G1 X112.764 Y89.601 E5.02376
G1 X113.41 Y89.698 E5.04548
G1 X114.029 Y89.811 E5.06641
G1 X114.692 Y89.954 E5.08897
G1 X115.265 Y90.097 E5.10861
G1 X115.885 Y90.273 E5.13005
G1 X116.513 Y90.471 E5.15195
G1 X117.164 Y90.699 E5.17489
G1 X117.715 Y90.913 E5.19455
G1 X118.288 Y91.155 E5.21524
G1 X118.854 Y91.414 E5.23594
G1 X119.429 Y91.699 E5.25729
G1 X119.975 Y91.99 E5.27786
G1 X120.593 Y92.346 E5.30159
G1 X121.155 Y92.696 E5.32361
G1 X121.693 Y93.055 E5.34512
G1 X122.16 Y93.387 E5.36418
G1 X122.684 Y93.784 E5.38604
G1 X123.228 Y94.224 E5.40931
G1 X123.747 Y94.672 E5.43212
G1 X124.131 Y95.026 E5.44949
G1 X124.567 Y95.452 E5.46976
G1 X125.033 Y95.934 E5.49206
G1 X125.493 Y96.442 E5.51485
G1 X125.892 Y96.912 E5.53536
G1 X126.295 Y97.417 E5.55685
G1 X126.671 Y97.919 E5.57771
G1 X127.049 Y98.458 E5.59961
G1 X127.385 Y98.97 E5.61997
G1 X127.749 Y99.567 E5.64323
G1 X128.076 Y100.145 E5.66532
G1 X128.378 Y100.719 E5.68689
G1 X128.631 Y101.238 E5.70609
G1 X128.887 Y101.805 E5.72679
G1 X129.12 Y102.364 E5.74693
G1 X129.363 Y103.003 E5.76967
G1 X129.577 Y103.627 E5.79161
G1 X129.772 Y104.262 E5.8137
G1 X129.927 Y104.827 E5.83319
G1 X130.072 Y105.419 E5.85346
G1 X130.2 Y106.019 E5.87387
G1 X130.323 Y106.706 E5.89708
G1 X130.422 Y107.387 E5.91997
G1 X130.498 Y108.064 E5.94263
G1 X130.543 Y108.625 E5.96134
G1 X130.574 Y109.24 E5.98182
G1 X130.588 Y109.876 E6.00298
G1 X130.581 Y110.572 E6.02613
G1 X130.553 Y111.213 E6.04747
G1 X130.504 Y111.864 E6.06919
G1 X130.443 Y112.441 E6.08849
G1 X130.356 Y113.082 E6.11
G1 X130.245 Y113.743 E6.13229
G1 X130.116 Y114.385 E6.15407
G1 X129.986 Y114.945 E6.17319
G1 X129.814 Y115.595 E6.19556
G1 X129.63 Y116.208 E6.21684
G1 X129.426 Y116.819 E6.23827
G1 X129.205 Y117.42 E6.25957
G1 X128.956 Y118.037 E6.2817
G1 X128.729 Y118.552 E6.30042
G1 X128.445 Y119.145 E6.32228
G1 X128.126 Y119.762 E6.34539
G1 X127.787 Y120.368 E6.36848
G1 X127.468 Y120.897 E6.38903
G1 X127.114 Y121.446 E6.41075
G1 X126.775 Y121.937 E6.4306
G1 X126.395 Y122.452 E6.45189
G1 X126.011 Y122.942 E6.47259
G1 X125.589 Y123.448 E6.49451
G1 X125.171 Y123.918 E6.51543
G1 X124.702 Y124.412 E6.53808
G1 X124.262 Y124.847 E6.55866
G1 X123.815 Y125.265 E6.57902
G1 X123.38 Y125.648 E6.59829
G1 X122.851 Y126.083 E6.62107
G1 X122.312 Y126.499 E6.64372
G1 X121.783 Y126.882 E6.66544
G1 X121.333 Y127.187 E6.68352
G1 X120.785 Y127.535 E6.70511
G1 X120.192 Y127.886 E6.72803
G1 X119.604 Y128.209 E6.75035
G1 X119.07 Y128.481 E6.77028
G1 X118.476 Y128.761 E6.79212
G1 X117.911 Y129.006 E6.8126
G1 X117.303 Y129.248 E6.83437
G1 X116.712 Y129.462 E6.85527
G1 X116.055 Y129.676 E6.87825
G1 X115.41 Y129.863 E6.90059
G1 X114.791 Y130.022 E6.92185
G1 X114.268 Y130.14 E6.93968
G1 X113.653 Y130.26 E6.96052
G1 X113.026 Y130.363 E6.98165
G1 X112.34 Y130.453 E7.00467
G1 X111.686 Y130.517 E7.02652
G1 X111.034 Y130.56 E7.04825
G1 X110.449 Y130.581 E7.06772
G1 X109.803 Y130.585 E7.08921
G1 X109.166 Y130.569 E7.1104
G1 X108.492 Y130.53 E7.13286
G1 X107.863 Y130.474 E7.15386
G1 X107.197 Y130.394 E7.17617
G1 X106.564 Y130.297 E7.19747
G1 X105.931 Y130.18 E7.21888
G1 X105.371 Y130.059 E7.23794
G1 X104.71 Y129.894 E7.2606
G1 X104.028 Y129.7 E7.28418
G1 X103.406 Y129.502 E7.30589
G1 X102.932 Y129.335 E7.32261
G1 X102.344 Y129.108 E7.34357
G1 X101.676 Y128.827 E7.36767
G1 X101.046 Y128.537 E7.39074
G1 X100.558 Y128.293 E7.40889
G1 X99.988 Y127.986 E7.43042
G1 X99.404 Y127.648 E7.45286
G1 X98.83 Y127.291 E7.47535
G1 X98.319 Y126.95 E7.49578
G1 X97.795 Y126.576 E7.51719
G1 X97.322 Y126.217 E7.53694
G1 X96.814 Y125.807 E7.55865
G1 X96.339 Y125.398 E7.5795
G1 X95.857 Y124.956 E7.60125
G1 X95.424 Y124.534 E7.62136
G1 X94.974 Y124.069 E7.64289
G1 X94.53 Y123.58 E7.66485
G1 X94.088 Y123.06 E7.68755
G1 X93.723 Y122.602 E7.70703
G1 X93.339 Y122.089 E7.72834
G1 X92.992 Y121.595 E7.74842
G1 X92.637 Y121.056 E7.76989
G1 X92.303 Y120.513 E7.79109
G1 X91.954 Y119.9 E7.81455
G1 X91.64 Y119.304 E7.83696
G1 X91.364 Y118.741 E7.85781
G1 X91.125 Y118.214 E7.87706
G1 X90.863 Y117.582 E7.89982
G1 X90.639 Y116.989 E7.9209
G1 X90.427 Y116.371 E7.94263
G1 X90.242 Y115.772 E7.96348
G1 X90.064 Y115.122 E7.9859
G1 X89.914 Y114.498 E8.00724
G1 X89.782 Y113.864 E8.02878
G1 X89.679 Y113.281 E8.04847
G1 X89.582 Y112.613 E8.07092
G1 X89.514 Y112.004 E8.0913
G1 X89.465 Y111.406 E8.11126
G1 X89.433 Y110.82 E8.13078
G1 X89.418 Y110.12 E8.15407
G1 X89.426 Y109.424 E8.17722
G1 X89.455 Y108.756 E8.19946
G1 X89.498 Y108.181 E8.21863
G1 X89.56 Y107.576 E8.23886
G1 X89.639 Y106.981 E8.25883
G1 X89.75 Y106.312 E8.28138
G1 X89.881 Y105.652 E8.30376
G1 X90.036 Y104.985 E8.32654
G1 X90.196 Y104.385 E8.34719
G1 X90.394 Y103.727 E8.37004
G1 X90.585 Y103.161 E8.38991
G1 X90.802 Y102.576 E8.41067
G1 X91.041 Y101.985 E8.43187
G1 X91.298 Y101.402 E8.45306
G1 X91.538 Y100.898 E8.47163
G1 X91.841 Y100.31 E8.49363
G1 X92.183 Y99.694 E8.51706
G1 X92.542 Y99.093 E8.54035
G1 X92.86 Y98.6 E8.55986
G1 X93.215 Y98.085 E8.58066
G1 X93.581 Y97.585 E8.60127
G1 X94.001 Y97.048 E8.62395
G1 X94.403 Y96.567 E8.6448
G1 X94.834 Y96.082 E8.66638
G1 X95.268 Y95.623 E8.68739
G0 F6000 X95.558 Y95.898
G1 F1200 X96.028 Y95.433 E8.70938
G1 X96.492 Y95.002 E8.73044
G1 X96.939 Y94.61 E8.75021
G1 X97.381 Y94.245 E8.76928
G1 X97.88 Y93.858 E8.79028
G1 X98.403 Y93.478 E8.81179
G1 X98.971 Y93.095 E8.83457
G1 X99.523 Y92.748 E8.85626
G1 X100.07 Y92.427 E8.87735
G1 X100.604 Y92.136 E8.89758
G1 X101.11 Y91.878 E8.91647
G1 X101.626 Y91.633 E8.93547
G1 X102.261 Y91.357 E8.9585
G1 X102.908 Y91.102 E8.98163
G1 X103.474 Y90.899 E9.00163
G1 X103.987 Y90.731 E9.01958
G1 X104.614 Y90.547 E9.04131
G1 X105.308 Y90.368 E9.06515
G1 X105.94 Y90.226 E9.0867
G1 X106.479 Y90.123 E9.10495
G1 X107.068 Y90.029 E9.12479
G1 X107.701 Y89.946 E9.14602
G1 X108.354 Y89.881 E9.16785
G1 X108.989 Y89.839 E9.18901
G1 X109.629 Y89.817 E9.21031
G1 X110.253 Y89.815 E9.23107
G1 X110.869 Y89.832 E9.25156
G1 X111.428 Y89.864 E9.27018
G1 X112.055 Y89.919 E9.29112
G1 X112.716 Y89.998 E9.31326
G1 X113.338 Y90.092 E9.33418
G1 X113.957 Y90.205 E9.35511
G1 X114.595 Y90.343 E9.37682
G1 X115.168 Y90.486 E9.39646
G1 X115.765 Y90.654 E9.41709
G1 X116.393 Y90.852 E9.43899
G1 X117.019 Y91.072 E9.46106
G1 X117.57 Y91.286 E9.48072
G1 X118.121 Y91.519 E9.50062
G1 X118.687 Y91.778 E9.52132
G1 X119.24 Y92.052 E9.54185
G1 X119.786 Y92.343 E9.56243
G1 X120.381 Y92.686 E9.58527
G1 X120.943 Y93.036 E9.60729
G1 X121.461 Y93.381 E9.62799
G1 X121.928 Y93.713 E9.64705
G1 X122.432 Y94.095 E9.66808
G1 X122.976 Y94.535 E9.69135
G1 X123.476 Y94.967 E9.71333
G1 X123.86 Y95.321 E9.7307
G1 X124.279 Y95.73 E9.75018
G1 X124.745 Y96.212 E9.77248
G1 X125.188 Y96.701 E9.79442
G1 X125.587 Y97.171 E9.81493
G1 X125.975 Y97.657 E9.83561
G1 X126.351 Y98.159 E9.85647
G1 X126.715 Y98.678 E9.87756
G1 X127.051 Y99.19 E9.89792
G1 X127.401 Y99.763 E9.92026
G1 X127.728 Y100.341 E9.94234
G1 X128.019 Y100.895 E9.96316
G1 X128.272 Y101.414 E9.98236
G1 X128.518 Y101.959 E10.00225
G1 X128.751 Y102.518 E10.02239
G1 X128.984 Y103.133 E10.04427
G1 X129.198 Y103.757 E10.06621
G1 X129.387 Y104.367 E10.08745
G1 X129.542 Y104.932 E10.10693
G1 X129.681 Y105.503 E10.12648
G1 X129.809 Y106.103 E10.14688
G1 X129.927 Y106.764 E10.16922
G1 X130.026 Y107.445 E10.19211
G1 X130.099 Y108.096 E10.21389
G1 X130.144 Y108.657 E10.23261
G1 X130.175 Y109.249 E10.25233
G1 X130.189 Y109.885 E10.27349
G1 X130.181 Y110.554 E10.29574
G1 X130.153 Y111.195 E10.31708
G1 X130.106 Y111.822 E10.33799
G1 X130.045 Y112.399 E10.35729
G1 X129.961 Y113.016 E10.378
G1 X129.85 Y113.677 E10.4003
G1 X129.727 Y114.295 E10.42125
G1 X129.597 Y114.855 E10.44037
G1 X129.43 Y115.48 E10.46189
G1 X129.246 Y116.093 E10.48318
G1 X129.05 Y116.681 E10.50379
G1 X128.829 Y117.282 E10.52509
G1 X128.59 Y117.876 E10.54639
G1 X128.363 Y118.391 E10.56511
G1 X128.09 Y118.962 E10.58616
G1 X127.771 Y119.579 E10.60926
G1 X127.445 Y120.161 E10.63145
G1 X127.126 Y120.69 E10.65199
G1 X126.785 Y121.218 E10.6729
G1 X126.446 Y121.709 E10.69274
G1 X126.08 Y122.206 E10.71327
G1 X125.696 Y122.696 E10.73398
G1 X125.29 Y123.183 E10.75506
G1 X124.872 Y123.653 E10.77599
G1 X124.421 Y124.128 E10.79777
G1 X123.981 Y124.563 E10.81835
G1 X123.55 Y124.965 E10.83795
G1 X123.115 Y125.348 E10.85723
G1 X122.607 Y125.767 E10.87913
G1 X122.068 Y126.183 E10.90178
G1 X121.559 Y126.551 E10.92267
G1 X121.109 Y126.856 E10.94075
G1 X120.582 Y127.191 E10.96152
