;FLAVOR:Marlin
;TIME:874
;Filament used: 0.549661m
;Layer height: 0.2
;MINX:90.017
;MINY:90.016
;MINZ:0.2
;MAXX:129.988
;MAXY:129.985
;MAXZ:13
;Generated with Cura_SteamEngine 4.5.0
M140 S50
M105
M190 S50
M104 S200
M105
M109 S200
M82 ;absolute extrusion mode
M201 X500.00 Y500.00 Z100.00 E5000.00 ;Setup machine max acceleration
M203 X500.00 Y500.00 Z10.00 E50.00 ;Setup machine max feedrate
M204 P500.00 R1000.00 T500.00 ;Setup Print/Retract/Travel acceleration
M205 X8.00 Y8.00 Z0.40 E5.00 ;Setup Jerk
M220 S100 ;Reset Feedrate
M221 S100 ;Reset Flowrate

G28 ;Home

G92 E0 ;Reset Extruder
G1 Z2.0 F3000 ;Move Z Axis up
G1 X10.1 Y20 Z0.28 F5000.0 ;Move to start position
G1 X10.1 Y200.0 Z0.28 F1500.0 E15 ;Draw the first line
G1 X10.4 Y200.0 Z0.28 F5000.0 ;Move to side a little
G1 X10.4 Y20 Z0.28 F1500.0 E30 ;Draw the second line
G92 E0 ;Reset Extruder
G1 Z2.0 F3000 ;Move Z Axis up

G92 E0
G92 E0
G1 F2700 E-5
;LAYER_COUNT:65
;LAYER:0
M107
G0 F6000 X95.976 Y95.764 Z0.2
;TYPE:SKIRT
G1 F2700 E0
G1 F1200 X96.475 Y95.288 E0.02294
G1 X96.85 Y94.952 E0.03968
G1 X97.368 Y94.516 E0.0622
G1 X97.86 Y94.127 E0.08306
G1 X98.415 Y93.716 E0.10603
G1 X98.829 Y93.429 E0.12279
G1 X99.434 Y93.038 E0.14675
G1 X100.002 Y92.697 E0.16878
G1 X100.611 Y92.357 E0.19198
G1 X101.048 Y92.131 E0.20834
G1 X101.678 Y91.831 E0.23155
G1 X102.229 Y91.589 E0.25157
G1 X102.882 Y91.326 E0.27498
G1 X103.422 Y91.129 E0.2941
G1 X104.076 Y90.913 E0.31701
G1 X104.611 Y90.755 E0.33556
G1 X105.265 Y90.584 E0.35805
G1 X105.831 Y90.454 E0.37736
G1 X106.534 Y90.317 E0.40118
G1 X107.071 Y90.23 E0.41928
G1 X107.765 Y90.14 E0.44255
G1 X108.361 Y90.082 E0.46247
G1 X109.054 Y90.036 E0.48557
G1 X109.615 Y90.017 E0.50424
G1 X110.334 Y90.016 E0.52815
G1 X110.873 Y90.033 E0.54609
G1 X111.559 Y90.077 E0.56895
G1 X112.206 Y90.138 E0.59057
G1 X112.884 Y90.223 E0.61329
G1 X113.373 Y90.3 E0.62976
G1 X114.052 Y90.429 E0.65275
G1 X114.609 Y90.553 E0.67173
G1 X115.302 Y90.731 E0.69552
G1 X115.898 Y90.905 E0.71617
G1 X116.558 Y91.12 E0.73926
G1 X117.061 Y91.302 E0.75705
G1 X117.676 Y91.546 E0.77906
G1 X118.172 Y91.76 E0.79703
G1 X118.828 Y92.069 E0.82114
G1 X119.408 Y92.366 E0.84282
G1 X120.028 Y92.709 E0.86638
G1 X120.459 Y92.966 E0.88307
G1 X121.051 Y93.345 E0.90645
G1 X121.539 Y93.68 E0.92614
G1 X122.091 Y94.085 E0.94891
G1 X122.555 Y94.448 E0.96851
G1 X123.084 Y94.889 E0.99141
G1 X123.497 Y95.256 E1.00979
G1 X124.026 Y95.759 E1.03407
G1 X124.427 Y96.166 E1.05307
G1 X124.889 Y96.665 E1.07569
G1 X125.278 Y97.112 E1.0954
G1 X125.73 Y97.667 E1.1192
G1 X126.053 Y98.091 E1.13693
G1 X126.447 Y98.643 E1.15949
G1 X126.786 Y99.15 E1.17977
G1 X127.159 Y99.748 E1.20321
G1 X127.421 Y100.2 E1.22059
G1 X127.757 Y100.825 E1.24419
G1 X128.035 Y101.385 E1.26499
G1 X128.323 Y102.014 E1.288
G1 X128.534 Y102.516 E1.30611
G1 X128.775 Y103.144 E1.32848
G1 X128.943 Y103.624 E1.3454
G1 X129.155 Y104.296 E1.36883
G1 X129.339 Y104.954 E1.39156
G1 X129.51 Y105.653 E1.41549
G1 X129.613 Y106.143 E1.43214
G1 X129.727 Y106.78 E1.45367
G1 X129.808 Y107.322 E1.47189
G1 X129.891 Y108.04 E1.49593
G1 X129.942 Y108.656 E1.51649
G1 X129.978 Y109.374 E1.5404
G1 X129.988 Y109.952 E1.55963
G1 X129.979 Y110.639 E1.58248
G1 X129.955 Y111.17 E1.60016
G1 X129.9 Y111.88 E1.62385
G1 X129.832 Y112.496 E1.64446
G1 X129.733 Y113.189 E1.66774
G1 X129.642 Y113.708 E1.68527
G1 X129.505 Y114.37 E1.70775
G1 X129.374 Y114.917 E1.72646
G1 X129.184 Y115.607 E1.75026
G1 X128.994 Y116.221 E1.77164
G1 X128.772 Y116.868 E1.79439
G1 X128.609 Y117.298 E1.80969
G1 X128.364 Y117.891 E1.83103
G1 X128.122 Y118.432 E1.85074
G1 X127.785 Y119.121 E1.87625
G1 X127.478 Y119.696 E1.89793
G1 X127.134 Y120.293 E1.92085
G1 X126.863 Y120.732 E1.93801
G1 X126.468 Y121.328 E1.96179
G1 X126.121 Y121.816 E1.9817
G1 X125.708 Y122.36 E2.00442
G1 X125.382 Y122.763 E2.02166
G1 X124.931 Y123.286 E2.04463
G1 X124.514 Y123.74 E2.06513
G1 X124.016 Y124.248 E2.08879
G1 X123.602 Y124.644 E2.10785
G1 X123.09 Y125.104 E2.13074
G1 X122.669 Y125.459 E2.14906
G1 X122.11 Y125.901 E2.17276
G1 X121.652 Y126.239 E2.19169
G1 X121.093 Y126.625 E2.21429
G1 X120.592 Y126.949 E2.23413
G1 X119.984 Y127.315 E2.25773
G1 X119.524 Y127.572 E2.27526
G1 X118.901 Y127.894 E2.29859
G1 X118.338 Y128.163 E2.31934
G1 X117.71 Y128.44 E2.34217
G1 X117.224 Y128.636 E2.3596
G1 X116.606 Y128.864 E2.38151
G1 X116.084 Y129.039 E2.39982
G1 X115.38 Y129.249 E2.42425
G1 X114.755 Y129.413 E2.44574
G1 X114.037 Y129.576 E2.47023
G1 X113.537 Y129.672 E2.48717
G1 X112.89 Y129.776 E2.50896
G1 X112.332 Y129.849 E2.52768
G1 X111.639 Y129.917 E2.55084
G1 X111.011 Y129.959 E2.57177
G1 X110.297 Y129.984 E2.59553
G1 X109.76 Y129.985 E2.6134
G1 X109.062 Y129.964 E2.63662
G1 X108.495 Y129.929 E2.65552
G1 X107.799 Y129.864 E2.67877
G1 X107.211 Y129.79 E2.69848
G1 X106.507 Y129.678 E2.72219
G1 X105.956 Y129.572 E2.74085
G1 X105.3 Y129.425 E2.76321
G1 X104.766 Y129.288 E2.78154
G1 X104.082 Y129.089 E2.80524
G1 X103.513 Y128.903 E2.82515
G1 X102.849 Y128.662 E2.84864
G1 X102.341 Y128.459 E2.86684
G1 X101.714 Y128.185 E2.8896
G1 X101.163 Y127.924 E2.90987
G1 X100.538 Y127.603 E2.93324
G1 X100.116 Y127.369 E2.94929
G1 X99.517 Y127.012 E2.97249
G1 X98.93 Y126.636 E2.99567
G1 X98.35 Y126.237 E3.01909
G1 X97.973 Y125.96 E3.03465
G1 X97.427 Y125.532 E3.05772
G1 X96.931 Y125.117 E3.07923
G1 X96.427 Y124.668 E3.10168
G1 X96.088 Y124.347 E3.11721
G1 X95.587 Y123.841 E3.14089
G1 X95.151 Y123.371 E3.16221
G1 X94.7 Y122.854 E3.18503
G1 X94.341 Y122.415 E3.2039
G1 X93.915 Y121.858 E3.22722
G1 X93.599 Y121.417 E3.24526
G1 X93.197 Y120.816 E3.26931
G1 X92.867 Y120.285 E3.29011
G1 X92.526 Y119.697 E3.31271
G1 X92.276 Y119.233 E3.33024
G1 X91.956 Y118.589 E3.35416
G1 X91.721 Y118.075 E3.37296
G1 X91.462 Y117.46 E3.39515
G1 X91.246 Y116.9 E3.41512
G1 X91.007 Y116.214 E3.43928
G1 X90.839 Y115.675 E3.45806
G1 X90.659 Y115.028 E3.48039
G1 X90.527 Y114.491 E3.49879
G1 X90.378 Y113.787 E3.52272
G1 X90.274 Y113.201 E3.54251
G1 X90.175 Y112.517 E3.5655
G1 X90.117 Y112.005 E3.58264
G1 X90.06 Y111.304 E3.60603
G1 X90.029 Y110.67 E3.62714
G1 X90.017 Y109.986 E3.6499
G1 X90.024 Y109.462 E3.66733
G1 X90.056 Y108.756 E3.69083
G1 X90.104 Y108.139 E3.71142
G1 X90.179 Y107.458 E3.7342
G1 X90.25 Y106.954 E3.75113
G1 X90.371 Y106.253 E3.77479
G1 X90.498 Y105.641 E3.79558
G1 X90.663 Y104.959 E3.81892
G1 X90.803 Y104.45 E3.83648
G1 X90.998 Y103.814 E3.8586
G1 X91.185 Y103.266 E3.87786
G1 X91.448 Y102.575 E3.90245
G1 X91.678 Y102.025 E3.92228
G1 X91.96 Y101.405 E3.94493
G1 X92.206 Y100.906 E3.96344
G1 X92.529 Y100.3 E3.98628
G1 X92.807 Y99.815 E4.00487
G1 X93.186 Y99.2 E4.0289
G1 X93.518 Y98.7 E4.04886
G1 X93.902 Y98.159 E4.07093
G1 X94.228 Y97.727 E4.08893
G1 X94.681 Y97.165 E4.11294
G1 X95.047 Y96.741 E4.13157
G1 X95.535 Y96.212 E4.1555
G1 X95.976 Y95.764 E4.17641
G0 F6000 X96.261 Y96.045
G1 F1200 X96.741 Y95.586 E4.1985
G1 X97.116 Y95.25 E4.21525
G1 X97.616 Y94.83 E4.23697
G1 X98.108 Y94.441 E4.25783
G1 X98.643 Y94.045 E4.27997
G1 X99.057 Y93.758 E4.29672
G1 X99.64 Y93.381 E4.31981
G1 X100.208 Y93.04 E4.34185
G1 X100.795 Y92.713 E4.3642
G1 X101.232 Y92.487 E4.38056
G1 X101.838 Y92.197 E4.4029
G1 X102.389 Y91.955 E4.42292
G1 X103.019 Y91.702 E4.4455
G1 X103.559 Y91.505 E4.46462
G1 X104.19 Y91.297 E4.48672
G1 X104.725 Y91.139 E4.50527
G1 X105.354 Y90.974 E4.5269
G1 X105.92 Y90.844 E4.54621
G1 X106.598 Y90.711 E4.56919
G1 X107.135 Y90.624 E4.58729
G1 X107.803 Y90.538 E4.60969
G1 X108.399 Y90.48 E4.62961
G1 X109.067 Y90.436 E4.65187
G1 X109.628 Y90.417 E4.67054
G1 X110.321 Y90.416 E4.69359
G1 X110.86 Y90.433 E4.71153
G1 X111.521 Y90.475 E4.73356
G1 X112.168 Y90.536 E4.75517
G1 X112.822 Y90.618 E4.77709
G1 X113.311 Y90.695 E4.79356
G1 X113.965 Y90.819 E4.8157
G1 X114.522 Y90.943 E4.83468
G1 X115.19 Y91.115 E4.85762
G1 X115.786 Y91.289 E4.87827
G1 X116.422 Y91.496 E4.90052
G1 X116.925 Y91.678 E4.91831
G1 X117.517 Y91.913 E4.93949
G1 X118.013 Y92.127 E4.95746
G1 X118.645 Y92.425 E4.9807
G1 X119.225 Y92.722 E5.00237
G1 X119.823 Y93.053 E5.0251
G1 X120.254 Y93.31 E5.04179
G1 X120.824 Y93.675 E5.06431
G1 X121.312 Y94.01 E5.08399
G1 X121.844 Y94.4 E5.10593
G1 X122.308 Y94.763 E5.12553
G1 X122.818 Y95.188 E5.14761
G1 X123.231 Y95.555 E5.16599
G1 X123.741 Y96.04 E5.18939
G1 X124.142 Y96.447 E5.2084
G1 X124.587 Y96.927 E5.23017
G1 X124.976 Y97.374 E5.24988
G1 X125.412 Y97.91 E5.27286
G1 X125.735 Y98.334 E5.29058
G1 X126.115 Y98.865 E5.3123
G1 X126.454 Y99.372 E5.33259
G1 X126.813 Y99.948 E5.35516
G1 X127.075 Y100.4 E5.37254
G1 X127.398 Y101.003 E5.39529
G1 X127.676 Y101.563 E5.41608
G1 X127.954 Y102.169 E5.43826
G1 X128.165 Y102.671 E5.45637
G1 X128.398 Y103.276 E5.47793
G1 X128.566 Y103.756 E5.49485
G1 X128.769 Y104.403 E5.5174
G1 X128.953 Y105.061 E5.54013
G1 X129.118 Y105.735 E5.56321
G1 X129.221 Y106.225 E5.57986
G1 X129.332 Y106.839 E5.60061
G1 X129.413 Y107.381 E5.61884
G1 X129.493 Y108.073 E5.64201
G1 X129.544 Y108.689 E5.66257
G1 X129.578 Y109.381 E5.68561
G1 X129.588 Y109.959 E5.70484
G1 X129.579 Y110.621 E5.72686
G1 X129.555 Y111.152 E5.74454
G1 X129.502 Y111.836 E5.76736
G1 X129.434 Y112.452 E5.78797
G1 X129.339 Y113.12 E5.81041
G1 X129.248 Y113.639 E5.82794
G1 X129.116 Y114.277 E5.8496
G1 X128.985 Y114.824 E5.86831
G1 X128.802 Y115.489 E5.89125
G1 X128.612 Y116.103 E5.91263
G1 X128.398 Y116.726 E5.93454
G1 X128.235 Y117.156 E5.94983
G1 X127.999 Y117.727 E5.97038
G1 X127.757 Y118.268 E5.9901
G1 X127.432 Y118.932 E6.01468
G1 X127.125 Y119.507 E6.03636
G1 X126.794 Y120.083 E6.05846
G1 X126.523 Y120.522 E6.07562
G1 X126.142 Y121.097 E6.09856
G1 X125.795 Y121.585 E6.11848
G1 X125.397 Y122.109 E6.14036
G1 X125.071 Y122.512 E6.1576
G1 X124.637 Y123.015 E6.1797
G1 X124.22 Y123.469 E6.2002
G1 X123.74 Y123.959 E6.22302
G1 X123.326 Y124.355 E6.24207
G1 X122.832 Y124.799 E6.26416
G1 X122.411 Y125.154 E6.28248
G1 X121.872 Y125.579 E6.30531
G1 X121.414 Y125.917 E6.32424
G1 X120.876 Y126.289 E6.346
G1 X120.375 Y126.613 E6.36584
G1 X119.789 Y126.966 E6.38859
G1 X119.329 Y127.223 E6.40612
G1 X118.729 Y127.533 E6.42858
G1 X118.166 Y127.802 E6.44933
G1 X117.561 Y128.069 E6.47133
G1 X117.075 Y128.265 E6.48876
G1 X116.479 Y128.484 E6.50988
G1 X115.957 Y128.659 E6.52819
G1 X115.278 Y128.862 E6.55176
G1 X114.653 Y129.026 E6.57325
G1 X113.962 Y129.183 E6.59682
G1 X113.462 Y129.279 E6.61375
G1 X112.838 Y129.379 E6.63477
G1 X112.28 Y129.452 E6.65349
G1 X111.612 Y129.518 E6.67582
G1 X110.984 Y129.56 E6.69675
G1 X110.297 Y129.584 E6.71961
G1 X109.76 Y129.585 E6.73748
G1 X109.087 Y129.565 E6.75987
G1 X108.52 Y129.53 E6.77876
G1 X107.849 Y129.467 E6.80118
G1 X107.261 Y129.393 E6.82089
G1 X106.583 Y129.285 E6.84373
G1 X106.032 Y129.179 E6.86239
G1 X105.4 Y129.037 E6.88393
G1 X104.866 Y128.9 E6.90227
G1 X104.206 Y128.708 E6.92513
G1 X103.637 Y128.522 E6.94504
G1 X102.998 Y128.29 E6.96765
G1 X102.49 Y128.087 E6.98585
G1 X101.885 Y127.824 E7.00779
G1 X101.334 Y127.563 E7.02807
G1 X100.732 Y127.253 E7.05059
G1 X100.31 Y127.019 E7.06664
G1 X99.733 Y126.675 E7.08898
G1 X99.146 Y126.299 E7.11217
G1 X98.587 Y125.915 E7.13472
G1 X98.21 Y125.638 E7.15028
G1 X97.684 Y125.226 E7.1725
G1 X97.188 Y124.811 E7.19401
G1 X96.702 Y124.378 E7.21566
G1 X96.363 Y124.057 E7.23119
G1 X95.88 Y123.569 E7.25403
G1 X95.444 Y123.099 E7.27535
G1 X95.009 Y122.6 E7.29737
G1 X94.65 Y122.161 E7.31623
G1 X94.24 Y121.625 E7.33868
G1 X93.924 Y121.184 E7.35672
G1 X93.537 Y120.605 E7.37988
G1 X93.207 Y120.074 E7.40068
G1 X92.878 Y119.507 E7.42248
G1 X92.628 Y119.043 E7.44001
G1 X92.32 Y118.422 E7.46307
G1 X92.085 Y117.908 E7.48186
G1 X91.835 Y117.316 E7.50324
G1 X91.619 Y116.756 E7.5232
G1 X91.389 Y116.095 E7.54648
G1 X91.221 Y115.556 E7.56526
G1 X91.047 Y114.932 E7.5868
G1 X90.915 Y114.395 E7.60519
G1 X90.772 Y113.717 E7.62824
G1 X90.668 Y113.131 E7.64804
G1 X90.572 Y112.472 E7.67019
G1 X90.514 Y111.96 E7.68732
G1 X90.46 Y111.285 E7.70985
G1 X90.429 Y110.651 E7.73096
G1 X90.417 Y109.991 E7.75291
G1 X90.424 Y109.467 E7.77034
G1 X90.455 Y108.787 E7.79298
G1 X90.503 Y108.17 E7.81357
G1 X90.575 Y107.513 E7.83555
G1 X90.646 Y107.009 E7.85248
G1 X90.763 Y106.334 E7.87526
G1 X90.89 Y105.722 E7.89605
G1 X91.049 Y105.065 E7.91854
G1 X91.189 Y104.556 E7.93609
G1 X91.377 Y103.944 E7.95739
G1 X91.564 Y103.396 E7.97665
G1 X91.817 Y102.729 E8.00037
G1 X92.047 Y102.179 E8.0202
G1 X92.319 Y101.582 E8.04202
G1 X92.565 Y101.083 E8.06053
G1 X92.876 Y100.499 E8.08253
G1 X93.154 Y100.014 E8.10113
G1 X93.519 Y99.421 E8.12429
G1 X93.851 Y98.921 E8.14425
G1 X94.221 Y98.4 E8.1655
G1 X94.547 Y97.968 E8.1835
G1 X94.984 Y97.427 E8.20663
G1 X95.35 Y97.003 E8.22526
G1 X95.82 Y96.493 E8.24833
G1 X96.261 Y96.045 E8.26924
G0 F6000 X96.546 Y96.326
G1 F1200 X97.008 Y95.884 E8.2905
G1 X97.383 Y95.548 E8.30725
G1 X97.864 Y95.144 E8.32814
G1 X98.356 Y94.755 E8.349
G1 X98.871 Y94.373 E8.37033
G1 X99.285 Y94.086 E8.38709
G1 X99.846 Y93.724 E8.40929
G1 X100.414 Y93.383 E8.43133
G1 X100.978 Y93.068 E8.45281
G1 X101.415 Y92.842 E8.46918
G1 X101.999 Y92.563 E8.4907
G1 X102.55 Y92.321 E8.51072
G1 X103.156 Y92.078 E8.53243
G1 X103.696 Y91.881 E8.55155
G1 X104.303 Y91.681 E8.57281
G1 X104.838 Y91.523 E8.59136
G1 X105.444 Y91.364 E8.6122
G1 X106.01 Y91.234 E8.63152
G1 X106.662 Y91.106 E8.65362
G1 X107.199 Y91.019 E8.67171
G1 X107.842 Y90.936 E8.69327
G1 X108.438 Y90.878 E8.71319
G1 X109.081 Y90.836 E8.73462
G1 X109.642 Y90.817 E8.75329
G1 X110.309 Y90.816 E8.77548
G1 X110.848 Y90.833 E8.79341
G1 X111.483 Y90.873 E8.81457
G1 X112.13 Y90.934 E8.83619
G1 X112.76 Y91.013 E8.85731
G1 X113.249 Y91.09 E8.87377
G1 X113.878 Y91.21 E8.89507
G1 X114.435 Y91.334 E8.91405
G1 X115.078 Y91.499 E8.93613
G1 X115.674 Y91.673 E8.95678
G1 X116.285 Y91.873 E8.97816
G1 X116.788 Y92.055 E8.99595
G1 X117.359 Y92.281 E9.01638
G1 X117.855 Y92.495 E9.03435
G1 X118.463 Y92.781 E9.05669
G1 X119.043 Y93.078 E9.07837
G1 X119.618 Y93.396 E9.10022
G1 X120.049 Y93.653 E9.11691
G1 X120.598 Y94.005 E9.1386
G1 X121.086 Y94.34 E9.15829
G1 X121.598 Y94.715 E9.1794
G1 X122.062 Y95.078 E9.19899
G1 X122.552 Y95.487 E9.22022
G1 X122.965 Y95.854 E9.2386
G1 X123.456 Y96.32 E9.26111
G1 X123.857 Y96.727 E9.28011
G1 X124.285 Y97.19 E9.30109
G1 X124.674 Y97.637 E9.32079
G1 X125.094 Y98.152 E9.3429
G1 X125.417 Y98.576 E9.36063
G1 X125.782 Y99.087 E9.38151
G1 X126.121 Y99.594 E9.4018
G1 X126.467 Y100.149 E9.42355
G1 X126.729 Y100.601 E9.44093
G1 X127.04 Y101.181 E9.46282
G1 X127.318 Y101.741 E9.48361
G1 X127.585 Y102.324 E9.50494
G1 X127.796 Y102.826 E9.52305
G1 X128.02 Y103.408 E9.54379
G1 X128.188 Y103.888 E9.5607
G1 X128.384 Y104.511 E9.58243
G1 X128.568 Y105.169 E9.60515
G1 X128.727 Y105.818 E9.62738
G1 X128.83 Y106.308 E9.64403
G1 X128.936 Y106.898 E9.66397
G1 X129.017 Y107.44 E9.68219
G1 X129.094 Y108.106 E9.70449
G1 X129.145 Y108.722 E9.72505
G1 X129.178 Y109.388 E9.74723
G1 X129.188 Y109.966 E9.76646
G1 X129.18 Y110.603 E9.78765
G1 X129.156 Y111.134 E9.80532
G1 X129.104 Y111.792 E9.82728
G1 X129.036 Y112.408 E9.84789
G1 X128.945 Y113.051 E9.86949
G1 X128.854 Y113.57 E9.88702
G1 X128.727 Y114.184 E9.90787
G1 X128.596 Y114.731 E9.92658
G1 X128.42 Y115.37 E9.94862
G1 X128.23 Y115.984 E9.97
G1 X128.024 Y116.584 E9.9911
G1 X127.861 Y117.014 E10.00639
G1 X127.634 Y117.564 E10.02618
G1 X127.392 Y118.105 E10.0459
G1 X127.079 Y118.744 E10.06956
G1 X126.772 Y119.319 E10.09124
G1 X126.453 Y119.873 E10.1125
G1 X126.182 Y120.312 E10.12966
G1 X125.816 Y120.865 E10.15172
G1 X125.469 Y121.353 E10.17164
G1 X125.086 Y121.857 E10.19269
G1 X124.76 Y122.26 E10.20993
G1 X124.342 Y122.745 E10.23123
G1 X123.925 Y123.199 E10.25173
G1 X123.463 Y123.67 E10.27367
G1 X123.049 Y124.066 E10.29273
G1 X122.574 Y124.493 E10.31397
G1 X122.153 Y124.848 E10.33229
G1 X121.635 Y125.257 E10.35424
G1 X121.177 Y125.595 E10.37317
G1 X120.659 Y125.953 E10.39411
G1 X120.158 Y126.277 E10.41396
G1 X119.594 Y126.617 E10.43586
G1 X119.134 Y126.874 E10.45339
G1 X118.556 Y127.172 E10.47502
G1 X117.993 Y127.441 E10.49577
G1 X117.411 Y127.698 E10.51693
G1 X116.925 Y127.894 E10.53436
G1 X116.352 Y128.105 E10.55467
G1 X115.83 Y128.28 E10.57298
G1 X115.177 Y128.475 E10.59565
G1 X114.552 Y128.639 E10.61714
G1 X113.886 Y128.79 E10.63985
