;FLAVOR:Marlin
;TIME:16400
;Filament used: 18.0089m
;Layer height: 0.2
;MINX:59
;MINY:12
;MINZ:0.2
;MAXX:161
;MAXY:208
;MAXZ:54
;Generated with Cura_SteamEngine 4.5.0
M140 S50
M105
M190 S50
M104 S200
M105
M109 S200
M82 ;absolute extrusion mode
M201 X500.00 Y500.00 Z100.00 E5000.00 ;Setup machine max acceleration
M203 X500.00 Y500.00 Z10.00 E50.00 ;Setup machine max feedrate
M204 P500.00 R1000.00 T500.00 ;Setup Print/Retract/Travel acceleration
M205 X8.00 Y8.00 Z0.40 E5.00 ;Setup Jerk
M220 S100 ;Reset Feedrate
M221 S100 ;Reset Flowrate

G28 ;Home

G92 E0 ;Reset Extruder
G1 Z2.0 F3000 ;Move Z Axis up
G1 X10.1 Y20 Z0.28 F5000.0 ;Move to start position
G1 X10.1 Y200.0 Z0.28 F1500.0 E15 ;Draw the first line
G1 X10.4 Y200.0 Z0.28 F5000.0 ;Move to side a little
G1 X10.4 Y20 Z0.28 F1500.0 E30 ;Draw the second line
G92 E0 ;Reset Extruder
G1 Z2.0 F3000 ;Move Z Axis up

G92 E0
G92 E0
G1 F2700 E-5
;LAYER_COUNT:270
;LAYER:0
M107
G0 F6000 X59.694 Y19.189 Z0.2
;TYPE:SKIRT
G1 F2700 E0
G1 F1200 X60.057 Y18.324 E0.0312
G1 X60.492 Y17.493 E0.0624
G1 X60.996 Y16.703 E0.09356
G1 X61.566 Y15.958 E0.12476
G1 X62.198 Y15.264 E0.15598
G1 X62.886 Y14.627 E0.18717
G1 X63.626 Y14.051 E0.21836
G1 X64.412 Y13.539 E0.24956
G1 X65.239 Y13.097 E0.28075
G1 X66.101 Y12.727 E0.31195
G1 X66.991 Y12.431 E0.34314
G1 X67.903 Y12.213 E0.37433
G1 X68.83 Y12.072 E0.40552
G1 X69.701 Y12.013 E0.43455
G1 X70.33 Y12 E0.45548
G1 X149.293 Y12 E3.0818
G1 X149.451 Y12.001 E3.08705
G1 X150.149 Y12.011 E3.11027
G1 X151.085 Y12.065 E3.14145
G1 X152.013 Y12.197 E3.17263
G1 X152.927 Y12.409 E3.20384
G1 X153.819 Y12.698 E3.23502
G1 X154.684 Y13.061 E3.26622
G1 X155.514 Y13.497 E3.29741
G1 X156.305 Y14.002 E3.32862
G1 X157.049 Y14.573 E3.35981
G1 X157.742 Y15.205 E3.39101
G1 X158.379 Y15.893 E3.42219
G1 X158.954 Y16.634 E3.45339
G1 X159.465 Y17.42 E3.48457
G1 X159.907 Y18.248 E3.51579
G1 X160.276 Y19.11 E3.54698
G1 X160.571 Y20 E3.57816
G1 X160.789 Y20.912 E3.60935
G1 X160.929 Y21.84 E3.64056
G1 X160.987 Y22.701 E3.66926
G1 X161 Y23.33 E3.69019
G1 X161 Y196.264 E9.442
G1 X160.99 Y197.127 E9.4707
G1 X160.939 Y198.064 E9.50191
G1 X160.807 Y198.992 E9.53309
G1 X160.598 Y199.906 E9.56427
G1 X160.311 Y200.799 E9.59547
G1 X159.949 Y201.665 E9.62669
G1 X159.515 Y202.496 E9.65787
G1 X159.011 Y203.287 E9.68907
G1 X158.442 Y204.032 E9.72025
G1 X157.811 Y204.727 E9.75147
G1 X157.124 Y205.365 E9.78265
G1 X156.385 Y205.942 E9.81384
G1 X155.599 Y206.454 E9.84504
G1 X154.773 Y206.897 E9.87621
G1 X153.911 Y207.269 E9.90744
G1 X153.022 Y207.565 E9.9386
G1 X152.11 Y207.785 E9.9698
G1 X151.183 Y207.926 E10.00099
G1 X150.299 Y207.987 E10.03046
G1 X149.67 Y208 E10.05139
G1 X70.707 Y208 E12.67771
G1 X69.867 Y207.99 E12.70565
G1 X68.931 Y207.938 E12.73683
G1 X68.002 Y207.806 E12.76804
G1 X67.088 Y207.596 E12.79923
G1 X66.195 Y207.309 E12.83043
G1 X65.33 Y206.946 E12.86163
G1 X64.499 Y206.512 E12.89281
G1 X63.708 Y206.008 E12.924
G1 X62.963 Y205.438 E12.9552
G1 X62.269 Y204.807 E12.9864
G1 X61.632 Y204.12 E13.01756
G1 X61.055 Y203.38 E13.04877
G1 X60.543 Y202.594 E13.07997
G1 X60.1 Y201.767 E13.11117
G1 X59.729 Y200.906 E13.14236
G1 X59.433 Y200.016 E13.17355
G1 X59.214 Y199.104 E13.20475
G1 X59.073 Y198.177 E13.23594
G1 X59.013 Y197.288 E13.26557
G1 X59 Y196.658 E13.28653
G1 X59 Y23.674 E19.04
G1 X59.01 Y22.86 E19.06708
G1 X59.063 Y21.924 E19.09826
G1 X59.195 Y20.995 E19.12947
G1 X59.406 Y20.081 E19.16067
G1 X59.694 Y19.189 E19.19184
G0 F6000 X60.092 Y19.264
G1 F1200 X60.455 Y18.418 E19.22246
G1 X60.889 Y17.606 E19.25308
G1 X61.392 Y16.835 E19.2837
G1 X61.961 Y16.111 E19.31433
G1 X62.589 Y15.439 E19.34492
G1 X63.274 Y14.823 E19.37556
G1 X64.01 Y14.27 E19.40618
G1 X64.791 Y13.782 E19.43681
G1 X65.611 Y13.364 E19.46742
G1 X66.465 Y13.019 E19.49806
G1 X67.345 Y12.749 E19.52867
G1 X68.245 Y12.557 E19.55928
G1 X69.159 Y12.443 E19.58992
G1 X69.712 Y12.413 E19.60834
G1 X70.33 Y12.4 E19.62889
G1 X149.293 Y12.4 E22.25522
G1 X149.445 Y12.401 E22.26027
G1 X150.143 Y12.411 E22.28349
G1 X151.062 Y12.464 E22.31411
G1 X151.973 Y12.597 E22.34473
G1 X152.869 Y12.808 E22.37534
G1 X153.743 Y13.096 E22.40595
G1 X154.59 Y13.459 E22.4366
G1 X155.401 Y13.894 E22.46721
G1 X156.171 Y14.398 E22.49782
G1 X156.895 Y14.967 E22.52844
G1 X157.567 Y15.597 E22.55908
G1 X158.182 Y16.282 E22.5897
G1 X158.735 Y17.018 E22.62032
G1 X159.222 Y17.799 E22.65093
G1 X159.639 Y18.62 E22.68156
G1 X159.984 Y19.474 E22.71219
G1 X160.253 Y20.354 E22.7428
G1 X160.445 Y21.255 E22.77344
G1 X160.558 Y22.168 E22.80404
G1 X160.587 Y22.712 E22.82216
G1 X160.6 Y23.33 E22.84272
G1 X160.6 Y196.264 E28.59452
G1 X160.59 Y197.122 E28.62306
G1 X160.539 Y198.041 E28.65368
G1 X160.408 Y198.953 E28.68432
G1 X160.198 Y199.849 E28.71493
G1 X159.912 Y200.724 E28.74555
G1 X159.551 Y201.571 E28.77617
G1 X159.117 Y202.383 E28.80679
G1 X158.615 Y203.155 E28.83742
G1 X158.047 Y203.88 E28.86805
G1 X157.419 Y204.553 E28.89867
G1 X156.735 Y205.169 E28.92929
G1 X156 Y205.723 E28.9599
G1 X155.22 Y206.212 E28.99052
G1 X154.4 Y206.631 E29.02115
G1 X153.547 Y206.977 E29.05176
G1 X152.667 Y207.248 E29.08239
G1 X151.767 Y207.441 E29.113
G1 X150.853 Y207.556 E29.14364
G1 X150.288 Y207.587 E29.16246
G1 X149.67 Y207.6 E29.18302
G1 X70.707 Y207.6 E31.80934
G1 X69.872 Y207.59 E31.83711
G1 X68.953 Y207.538 E31.86773
G1 X68.042 Y207.407 E31.89834
G1 X67.146 Y207.197 E31.92895
G1 X66.271 Y206.91 E31.95958
G1 X65.424 Y206.548 E31.99021
G1 X64.612 Y206.114 E32.02084
G1 X63.841 Y205.612 E32.05144
G1 X63.116 Y205.044 E32.08207
G1 X62.443 Y204.415 E32.11271
G1 X61.828 Y203.731 E32.1433
G1 X61.274 Y202.996 E32.17391
G1 X60.786 Y202.215 E32.20455
G1 X60.367 Y201.395 E32.23517
G1 X60.021 Y200.542 E32.26579
G1 X59.751 Y199.662 E32.2964
G1 X59.558 Y198.761 E32.32705
G1 X59.444 Y197.848 E32.35765
G1 X59.413 Y197.277 E32.37667
G1 X59.4 Y196.658 E32.39727
G1 X59.4 Y23.674 E38.15074
G1 X59.41 Y22.866 E38.17761
G1 X59.462 Y21.946 E38.20826
G1 X59.594 Y21.035 E38.23888
G1 X59.805 Y20.139 E38.26949
G1 X60.092 Y19.264 E38.30012
G0 F6000 X60.491 Y19.341
G1 F1200 X60.853 Y18.514 E38.33015
G1 X61.286 Y17.722 E38.36017
G1 X61.788 Y16.971 E38.39021
G1 X62.355 Y16.267 E38.42028
G1 X62.981 Y15.617 E38.45029
G1 X63.662 Y15.024 E38.48033
G1 X64.394 Y14.494 E38.51039
G1 X65.169 Y14.031 E38.54041
G1 X65.982 Y13.638 E38.57045
G1 X66.827 Y13.318 E38.6005
G1 X67.696 Y13.075 E38.63051
G1 X68.584 Y12.909 E38.66056
G1 X69.723 Y12.813 E38.69858
G1 X70.33 Y12.8 E38.71877
G1 X149.293 Y12.8 E41.34509
G1 X149.439 Y12.801 E41.34995
G1 X150.137 Y12.811 E41.37316
G1 X151.039 Y12.864 E41.40322
G1 X151.932 Y12.996 E41.43324
G1 X152.81 Y13.207 E41.46327
G1 X153.666 Y13.495 E41.49331
G1 X154.493 Y13.857 E41.52334
G1 X155.285 Y14.292 E41.55339
G1 X156.036 Y14.794 E41.58344
G1 X156.739 Y15.361 E41.61348
G1 X157.389 Y15.988 E41.64351
G1 X157.981 Y16.67 E41.67355
G1 X158.511 Y17.401 E41.70358
G1 X158.973 Y18.177 E41.73362
G1 X159.366 Y18.99 E41.76365
G1 X159.684 Y19.835 E41.79368
G1 X159.927 Y20.705 E41.82373
G1 X160.092 Y21.593 E41.85377
G1 X160.187 Y22.723 E41.89148
G1 X160.2 Y23.33 E41.91168
G1 X160.2 Y196.264 E47.66349
G1 X160.19 Y197.117 E47.69186
G1 X160.139 Y198.019 E47.72191
G1 X160.008 Y198.913 E47.75196
G1 X159.799 Y199.791 E47.78198
G1 X159.513 Y200.648 E47.81203
G1 X159.152 Y201.476 E47.84207
G1 X158.72 Y202.268 E47.87208
G1 X158.219 Y203.02 E47.90213
G1 X157.653 Y203.724 E47.93217
G1 X157.028 Y204.375 E47.96219
G1 X156.347 Y204.969 E47.99225
G1 X155.616 Y205.5 E48.0223
G1 X154.842 Y205.964 E48.05231
G1 X154.029 Y206.358 E48.08236
G1 X153.185 Y206.678 E48.11238
G1 X152.315 Y206.923 E48.14244
G1 X151.428 Y207.089 E48.17246
G1 X150.277 Y207.187 E48.21088
G1 X149.67 Y207.2 E48.23107
G1 X70.707 Y207.2 E50.85739
G1 X69.877 Y207.19 E50.885
G1 X68.976 Y207.139 E50.91502
G1 X68.082 Y207.007 E50.94507
G1 X67.204 Y206.798 E50.97509
G1 X66.347 Y206.511 E51.00515
G1 X65.52 Y206.15 E51.03516
G1 X64.727 Y205.717 E51.06521
G1 X63.976 Y205.216 E51.09524
G1 X63.272 Y204.65 E51.12528
G1 X62.621 Y204.024 E51.15532
G1 X62.028 Y203.343 E51.18536
G1 X61.498 Y202.612 E51.21539
G1 X61.034 Y201.837 E51.24543
G1 X60.64 Y201.024 E51.27548
G1 X60.32 Y200.18 E51.3055
G1 X60.076 Y199.31 E51.33555
G1 X59.91 Y198.422 E51.3656
G1 X59.813 Y197.267 E51.40415
G1 X59.8 Y196.658 E51.42441
G1 X59.8 Y23.674 E57.17788
G1 X59.81 Y22.871 E57.20459
G1 X59.862 Y21.969 E57.23464
G1 X59.994 Y21.076 E57.26467
G1 X60.204 Y20.198 E57.29469
G1 X60.491 Y19.341 E57.32475
G1 F2700 E52.32475
;MESH:Dispenser Base.stl
G0 F6000 X107.65 Y173.756
G0 X106.791 Y172.109
G0 X104.405 Y175.14
G0 X104.075 Y175.652
G0 X103.685 Y176.453
G0 X103.397 Y177.297
G0 X103.219 Y178.171
G0 X103.159 Y179.062
G0 X103.214 Y179.956
G0 X103.447 Y181.016
G0 X103.987 Y182.463
G0 X104.425 Y183.222
G0 X105.14 Y184.098
G0 X106.007 Y184.877
G0 X106.979 Y185.484
G0 X107.762 Y185.772
G0 X110.562 Y186.742
;TYPE:WALL-INNER
G1 F2700 E57.32475
G1 F1200 X111.156 Y186.663 E57.34468
G1 X111.639 Y186.572 E57.36103
G1 X112.284 Y186.397 E57.38326
G1 X112.987 Y186.112 E57.40849
G1 X113.159 Y186.051 E57.41456
G1 X113.981 Y185.648 E57.44501
G1 X114.747 Y185.146 E57.47547
G1 X114.902 Y185.022 E57.48207
G1 X115.461 Y184.535 E57.50673
G1 X115.642 Y184.35 E57.51534
G1 X116.126 Y183.797 E57.53978
G1 X116.288 Y183.578 E57.54884
G1 X116.686 Y182.98 E57.57273
G1 X116.826 Y182.729 E57.58229
G1 X117.125 Y182.107 E57.60525
G1 X117.132 Y182.094 E57.60574
G1 X117.136 Y182.082 E57.60616
G1 X117.245 Y181.812 E57.61584
G1 X117.46 Y181.159 E57.63871
G1 X117.541 Y180.845 E57.64949
G1 X117.666 Y180.193 E57.67157
G1 X117.707 Y179.847 E57.68316
G1 X117.743 Y179.21 E57.70438
G1 X117.74 Y178.831 E57.71699
G1 X117.696 Y178.22 E57.73736
G1 X117.637 Y177.808 E57.75121
G1 X117.524 Y177.246 E57.77027
G1 X117.398 Y176.8 E57.78569
G1 X117.231 Y176.305 E57.80306
G1 X117.024 Y175.82 E57.8206
G1 X116.822 Y175.405 E57.83595
G1 X116.509 Y174.875 E57.85643
G1 X116.309 Y174.564 E57.86872
G1 X115.843 Y173.972 E57.89378
G1 X115.694 Y173.794 E57.9015
G1 X115.145 Y173.258 E57.92702
G1 X114.969 Y173.102 E57.93484
G1 X114.055 Y172.483 E57.97156
G1 X113.1 Y172.014 E58.00695
G1 X112.094 Y171.672 E58.04229
G1 X111.268 Y171.51 E58.07028
G1 X111.001 Y171.47 E58.07926
G1 X109.903 Y171.465 E58.11578
G1 X108.982 Y171.582 E58.14666
G1 X108.805 Y171.617 E58.15266
G1 X108.002 Y171.826 E58.18026
G1 X107.779 Y171.899 E58.18807
G1 X107.098 Y172.174 E58.21249
G1 X106.878 Y172.279 E58.2206
G1 X106.245 Y172.629 E58.24466
G1 X106.029 Y172.771 E58.25326
G1 X105.457 Y173.184 E58.27672
G1 X105.25 Y173.364 E58.28584
G1 X104.745 Y173.833 E58.30877
G1 X104.547 Y174.056 E58.31869
G1 X104.118 Y174.565 E58.34083
G1 X103.939 Y174.831 E58.35149
G1 X103.585 Y175.376 E58.37311
G1 X103.164 Y176.238 E58.40501
G1 X102.854 Y177.149 E58.43702
G1 X102.669 Y178.071 E58.4683
G1 X102.663 Y178.097 E58.46918
G1 X102.662 Y178.122 E58.47002
G1 X102.597 Y179.061 E58.50132
G1 X102.656 Y180.027 E58.53351
G1 X102.842 Y180.97 E58.56548
G1 X102.914 Y181.193 E58.57327
G1 X103.075 Y181.667 E58.58992
G1 X103.117 Y181.822 E58.59526
G1 X103.482 Y182.711 E58.62723
G1 X103.959 Y183.535 E58.6589
G1 X104.537 Y184.29 E58.69052
G1 X104.749 Y184.5 E58.70045
G1 X105.426 Y185.14 E58.73143
G1 X105.685 Y185.337 E58.74225
G1 X106.445 Y185.823 E58.77226
G1 X106.731 Y185.989 E58.78326
G1 X107.072 Y186.129 E58.79552
G1 X107.839 Y186.433 E58.82296
G1 X107.861 Y186.438 E58.82371
G1 X108.237 Y186.54 E58.83667
G1 X108.996 Y186.685 E58.86237
G1 X109.427 Y186.742 E58.87683
G1 X110.562 Y186.742 E58.91458
G0 F6000 X110.536 Y186.342
G1 F1200 X111.093 Y186.268 E58.93327
G1 X111.549 Y186.182 E58.9487
G1 X112.156 Y186.017 E58.96962
G1 X112.837 Y185.741 E58.99406
G1 X113.004 Y185.682 E58.99995
G1 X113.783 Y185.3 E59.02881
G1 X114.512 Y184.822 E59.0578
G1 X114.646 Y184.715 E59.06351
G1 X115.186 Y184.244 E59.08734
G1 X115.348 Y184.078 E59.09505
G1 X115.814 Y183.546 E59.11858
G1 X115.961 Y183.348 E59.12678
G1 X116.344 Y182.771 E59.14981
G1 X116.471 Y182.544 E59.15846
G1 X116.766 Y181.933 E59.18103
G1 X116.869 Y181.675 E59.19027
G1 X117.076 Y181.047 E59.21226
G1 X117.15 Y180.758 E59.22219
G1 X117.27 Y180.132 E59.24339
G1 X117.308 Y179.812 E59.2541
G1 X117.343 Y179.2 E59.27449
G1 X117.34 Y178.847 E59.28623
G1 X117.298 Y178.263 E59.30571
G1 X117.243 Y177.876 E59.31871
G1 X117.135 Y177.34 E59.33689
G1 X117.016 Y176.918 E59.35148
G1 X116.857 Y176.448 E59.36798
G1 X116.66 Y175.986 E59.38469
G1 X116.469 Y175.594 E59.39919
G1 X116.169 Y175.085 E59.41884
G1 X115.983 Y174.797 E59.43024
G1 X115.532 Y174.224 E59.4545
G1 X115.4 Y174.066 E59.46134
G1 X114.872 Y173.551 E59.48588
G1 X114.723 Y173.418 E59.49252
G1 X113.854 Y172.83 E59.52742
G1 X112.947 Y172.384 E59.56103
G1 X111.991 Y172.059 E59.59462
G1 X111.2 Y171.904 E59.62143
G1 X110.971 Y171.87 E59.62913
G1 X109.927 Y171.865 E59.66385
G1 X109.046 Y171.977 E59.69339
G1 X108.894 Y172.007 E59.69854
G1 X108.115 Y172.21 E59.72532
G1 X107.916 Y172.275 E59.73228
G1 X107.259 Y172.54 E59.75584
G1 X107.061 Y172.635 E59.76315
G1 X106.452 Y172.971 E59.78628
G1 X106.257 Y173.1 E59.79406
G1 X105.706 Y173.498 E59.81666
G1 X105.517 Y173.662 E59.82499
G1 X105.031 Y174.113 E59.84704
G1 X104.85 Y174.317 E59.85611
G1 X104.438 Y174.807 E59.8774
G1 X104.272 Y175.052 E59.88724
G1 X103.934 Y175.573 E59.9079
G1 X103.535 Y176.391 E59.93817
G1 X103.241 Y177.254 E59.96849
G1 X103.06 Y178.15 E59.9989
G1 X102.998 Y179.062 E60.0293
G1 X103.054 Y179.976 E60.05976
G1 X103.23 Y180.869 E60.09003
G1 X103.294 Y181.067 E60.09695
G1 X103.454 Y181.538 E60.1135
G1 X103.496 Y181.693 E60.11884
G1 X103.842 Y182.534 E60.14908
G1 X104.292 Y183.312 E60.17898
G1 X104.838 Y184.025 E60.20885
G1 X105.027 Y184.213 E60.21771
G1 X105.685 Y184.835 E60.24783
G1 X105.914 Y185.009 E60.25739
G1 X106.653 Y185.481 E60.28656
G1 X106.908 Y185.629 E60.29637
G1 X107.222 Y185.758 E60.30766
G1 X107.965 Y186.053 E60.33424
G1 X108.326 Y186.15 E60.34668
G1 X109.06 Y186.29 E60.37153
G1 X109.453 Y186.342 E60.38472
G1 X110.536 Y186.342 E60.42074
G0 F6000 X110.51 Y185.942
;TYPE:WALL-OUTER
G1 F1200 X111.03 Y185.873 E60.43818
G1 X111.459 Y185.792 E60.4527
G1 X112.028 Y185.637 E60.47232
G1 X112.692 Y185.367 E60.49616
G1 X112.849 Y185.312 E60.50169
G1 X113.585 Y184.952 E60.52894
G1 X114.277 Y184.498 E60.55647
G1 X114.39 Y184.408 E60.56128
G1 X114.911 Y183.953 E60.58428
G1 X115.054 Y183.806 E60.5911
G1 X115.503 Y183.294 E60.61375
G1 X115.634 Y183.118 E60.62105
G1 X116.002 Y182.562 E60.64323
G1 X116.116 Y182.359 E60.65097
G1 X116.4 Y181.772 E60.67266
G1 X116.493 Y181.538 E60.68103
G1 X116.692 Y180.935 E60.70215
G1 X116.759 Y180.671 E60.71121
G1 X116.874 Y180.071 E60.73153
G1 X116.909 Y179.777 E60.74138
G1 X116.943 Y179.19 E60.76094
G1 X116.94 Y178.863 E60.77181
G1 X116.9 Y178.305 E60.79042
G1 X116.849 Y177.944 E60.80254
G1 X116.746 Y177.434 E60.81985
G1 X116.634 Y177.037 E60.83357
G1 X116.483 Y176.591 E60.84923
G1 X116.296 Y176.152 E60.8651
G1 X116.116 Y175.783 E60.87876
G1 X115.829 Y175.295 E60.89759
G1 X115.657 Y175.03 E60.90809
G1 X115.222 Y174.476 E60.93152
G1 X115.106 Y174.338 E60.93752
G1 X114.599 Y173.843 E60.96109
G1 X114.477 Y173.734 E60.96653
G1 X113.653 Y173.177 E60.99961
G1 X112.794 Y172.754 E61.03145
G1 X111.888 Y172.446 E61.06328
G1 X111.133 Y172.298 E61.08887
G1 X110.941 Y172.27 E61.09532
G1 X109.951 Y172.265 E61.12825
G1 X109.11 Y172.372 E61.15645
G1 X108.983 Y172.397 E61.16075
G1 X108.228 Y172.594 E61.18671
G1 X108.053 Y172.651 E61.19283
G1 X107.421 Y172.906 E61.21549
G1 X107.245 Y172.991 E61.222
G1 X106.659 Y173.314 E61.24425
G1 X106.484 Y173.429 E61.25122
G1 X105.955 Y173.812 E61.27294
G1 X105.784 Y173.96 E61.28046
G1 X105.317 Y174.393 E61.30164
G1 X105.153 Y174.578 E61.30986
G1 X104.757 Y175.049 E61.33033
G1 X104.605 Y175.273 E61.33933
G1 X104.283 Y175.77 E61.35903
G1 X103.906 Y176.544 E61.38767
G1 X103.628 Y177.359 E61.41631
G1 X103.457 Y178.203 E61.44495
G1 X103.399 Y179.063 E61.47362
G1 X103.452 Y179.925 E61.50234
G1 X103.618 Y180.768 E61.53092
G1 X103.674 Y180.941 E61.53697
G1 X103.833 Y181.409 E61.55341
G1 X103.875 Y181.564 E61.55875
G1 X104.202 Y182.357 E61.58728
G1 X104.625 Y183.089 E61.6154
G1 X105.139 Y183.76 E61.64351
