;FLAVOR:Marlin
;TIME:19135
;Filament used: 18.5458m
;Layer height: 0.2
;MINX:59
;MINY:70
;MINZ:0.2
;MAXX:161
;MAXY:150
;MAXZ:95
;Generated with Cura_SteamEngine 4.5.0
M140 S50
M105
M190 S50
M104 S200
M105
M109 S200
M82 ;absolute extrusion mode
M201 X500.00 Y500.00 Z100.00 E5000.00 ;Setup machine max acceleration
M203 X500.00 Y500.00 Z10.00 E50.00 ;Setup machine max feedrate
M204 P500.00 R1000.00 T500.00 ;Setup Print/Retract/Travel acceleration
M205 X8.00 Y8.00 Z0.40 E5.00 ;Setup Jerk
M220 S100 ;Reset Feedrate
M221 S100 ;Reset Flowrate

G28 ;Home

G92 E0 ;Reset Extruder
G1 Z2.0 F3000 ;Move Z Axis up
G1 X10.1 Y20 Z0.28 F5000.0 ;Move to start position
G1 X10.1 Y200.0 Z0.28 F1500.0 E15 ;Draw the first line
G1 X10.4 Y200.0 Z0.28 F5000.0 ;Move to side a little
G1 X10.4 Y20 Z0.28 F1500.0 E30 ;Draw the second line
G92 E0 ;Reset Extruder
G1 Z2.0 F3000 ;Move Z Axis up

G92 E0
G92 E0
G1 F2700 E-5
;LAYER_COUNT:475
;LAYER:0
M107
G0 F6000 X62.899 Y72.616 Z0.2
;TYPE:SKIRT
G1 F2700 E0
G1 F1200 X63.64 Y72.041 E0.0312
G1 X64.427 Y71.531 E0.06239
G1 X65.255 Y71.09 E0.09359
G1 X66.117 Y70.721 E0.12478
G1 X67.008 Y70.427 E0.15598
G1 X67.92 Y70.209 E0.18717
G1 X68.847 Y70.071 E0.21834
G1 X69.701 Y70.013 E0.24681
G1 X70.33 Y70 E0.26774
G1 X149.293 Y70 E2.89406
G1 X149.451 Y70.001 E2.89931
G1 X150.149 Y70.011 E2.92253
G1 X151.085 Y70.065 E2.95371
G1 X152.013 Y70.197 E2.98489
G1 X152.927 Y70.409 E3.0161
G1 X153.819 Y70.698 E3.04728
G1 X154.684 Y71.061 E3.07848
G1 X155.514 Y71.497 E3.10967
G1 X156.305 Y72.002 E3.14088
G1 X157.049 Y72.573 E3.17207
G1 X157.742 Y73.205 E3.20327
G1 X158.379 Y73.893 E3.23445
G1 X158.954 Y74.634 E3.26565
G1 X159.465 Y75.42 E3.29683
G1 X159.907 Y76.248 E3.32805
G1 X160.276 Y77.11 E3.35923
G1 X160.571 Y78 E3.39042
G1 X160.789 Y78.912 E3.42161
G1 X160.929 Y79.84 E3.45282
G1 X160.987 Y80.701 E3.48152
G1 X161 Y81.33 E3.50245
G1 X161 Y138.248 E5.39555
G1 X160.999 Y138.401 E5.40064
G1 X160.989 Y139.122 E5.42462
G1 X160.936 Y140.058 E5.4558
G1 X160.803 Y140.986 E5.48698
G1 X160.592 Y141.9 E5.51818
G1 X160.304 Y142.793 E5.54939
G1 X159.941 Y143.657 E5.58056
G1 X159.505 Y144.488 E5.61177
G1 X159.001 Y145.278 E5.64294
G1 X158.43 Y146.023 E5.67416
G1 X157.799 Y146.716 E5.70533
G1 X157.11 Y147.353 E5.73654
G1 X156.37 Y147.929 E5.76773
G1 X155.584 Y148.44 E5.79891
G1 X154.757 Y148.883 E5.83012
G1 X153.895 Y149.253 E5.86132
G1 X153.005 Y149.548 E5.8925
G1 X152.093 Y149.766 E5.92369
G1 X151.165 Y149.906 E5.9549
G1 X150.367 Y149.963 E5.98151
G1 X149.462 Y149.994 E6.01163
G1 X149.085 Y150 E6.02417
G1 X70.749 Y150 E8.62964
G1 X70.591 Y149.999 E8.63489
G1 X69.893 Y149.989 E8.65811
G1 X68.957 Y149.935 E8.68929
G1 X68.029 Y149.803 E8.72047
G1 X67.115 Y149.591 E8.75168
G1 X66.223 Y149.302 E8.78286
G1 X65.358 Y148.939 E8.81406
G1 X64.528 Y148.503 E8.84525
G1 X63.343 Y147.708 E8.89271
G1 X62.621 Y147.108 E8.92393
G1 X61.954 Y146.449 E8.95512
G1 X61.345 Y145.736 E8.98631
G1 X60.799 Y144.973 E9.01751
G1 X60.32 Y144.167 E9.0487
G1 X59.912 Y143.323 E9.07987
G1 X59.577 Y142.447 E9.11107
G1 X59.318 Y141.545 E9.14228
G1 X59.136 Y140.625 E9.17347
G1 X59.034 Y139.693 E9.20466
G1 X59.01 Y139.104 E9.22426
G1 X59 Y138.282 E9.25161
G1 X59 Y81.674 E11.1344
G1 X59.001 Y81.509 E11.13988
G1 X59.011 Y80.844 E11.162
G1 X59.065 Y79.907 E11.19322
G1 X59.199 Y78.979 E11.22441
G1 X59.411 Y78.065 E11.25561
G1 X59.7 Y77.173 E11.2868
G1 X60.065 Y76.309 E11.31799
G1 X60.501 Y75.479 E11.34918
G1 X61.007 Y74.689 E11.38038
G1 X61.578 Y73.945 E11.41157
G1 X62.21 Y73.252 E11.44277
G1 X62.899 Y72.616 E11.47396
G0 F6000 X63.288 Y72.813
G1 F1200 X64.024 Y72.261 E11.50456
G1 X64.806 Y71.774 E11.5352
G1 X65.627 Y71.358 E11.56581
G1 X66.481 Y71.014 E11.59643
G1 X67.361 Y70.745 E11.62704
G1 X68.262 Y70.554 E11.65767
G1 X69.176 Y70.442 E11.6883
G1 X69.712 Y70.413 E11.70615
G1 X70.33 Y70.4 E11.72671
G1 X149.293 Y70.4 E14.35303
G1 X149.445 Y70.401 E14.35808
G1 X150.143 Y70.411 E14.3813
G1 X151.062 Y70.464 E14.41192
G1 X151.973 Y70.597 E14.44254
G1 X152.869 Y70.808 E14.47316
G1 X153.743 Y71.096 E14.50376
G1 X154.59 Y71.459 E14.53441
G1 X155.401 Y71.894 E14.56502
G1 X156.171 Y72.398 E14.59563
G1 X156.895 Y72.967 E14.62626
G1 X157.567 Y73.597 E14.6569
G1 X158.182 Y74.282 E14.68751
G1 X158.735 Y75.018 E14.71813
G1 X159.222 Y75.799 E14.74875
G1 X159.639 Y76.62 E14.77937
G1 X159.984 Y77.474 E14.81001
G1 X160.253 Y78.354 E14.84061
G1 X160.445 Y79.255 E14.87125
G1 X160.558 Y80.168 E14.90185
G1 X160.587 Y80.712 E14.91997
G1 X160.6 Y81.33 E14.94053
G1 X160.6 Y138.248 E16.83363
G1 X160.599 Y138.395 E16.83852
G1 X160.589 Y139.116 E16.8625
G1 X160.536 Y140.035 E16.89312
G1 X160.404 Y140.946 E16.92374
G1 X160.193 Y141.842 E16.95435
G1 X159.905 Y142.717 E16.98499
G1 X159.543 Y143.563 E17.0156
G1 X159.108 Y144.375 E17.04623
G1 X158.605 Y145.146 E17.07685
G1 X158.036 Y145.87 E17.10748
G1 X157.407 Y146.542 E17.13809
G1 X156.722 Y147.157 E17.16871
G1 X155.986 Y147.71 E17.19933
G1 X155.205 Y148.197 E17.22994
G1 X154.384 Y148.615 E17.26059
G1 X153.531 Y148.96 E17.29119
G1 X152.651 Y149.23 E17.32181
G1 X151.75 Y149.422 E17.35245
G1 X150.837 Y149.535 E17.38304
G1 X150.353 Y149.563 E17.39917
G1 X149.448 Y149.594 E17.42929
G1 X149.085 Y149.6 E17.44136
G1 X70.749 Y149.6 E20.04683
G1 X70.597 Y149.599 E20.05188
G1 X69.899 Y149.589 E20.0751
G1 X68.98 Y149.536 E20.10572
G1 X68.069 Y149.403 E20.13634
G1 X67.173 Y149.192 E20.16696
G1 X66.299 Y148.904 E20.19756
G1 X65.452 Y148.541 E20.22821
G1 X64.641 Y148.106 E20.25882
G1 X63.585 Y147.39 E20.30126
G1 X62.878 Y146.8 E20.33188
G1 X62.224 Y146.152 E20.36251
G1 X61.629 Y145.449 E20.39314
G1 X61.097 Y144.698 E20.42375
G1 X60.633 Y143.903 E20.45436
G1 X60.239 Y143.071 E20.48498
G1 X59.919 Y142.207 E20.51563
G1 X59.675 Y141.32 E20.54622
G1 X59.509 Y140.414 E20.57686
G1 X59.41 Y139.099 E20.62072
G1 X59.4 Y138.282 E20.6479
G1 X59.4 Y81.674 E22.53069
G1 X59.401 Y81.515 E22.53597
G1 X59.411 Y80.85 E22.5581
G1 X59.465 Y79.931 E22.58871
G1 X59.598 Y79.02 E22.61934
G1 X59.81 Y78.124 E22.64996
G1 X60.099 Y77.249 E22.68061
G1 X60.463 Y76.404 E22.71121
G1 X60.898 Y75.593 E22.74182
G1 X61.403 Y74.822 E22.77247
G1 X61.972 Y74.099 E22.80307
G1 X62.602 Y73.427 E22.83371
G1 X63.288 Y72.813 E22.86433
G0 F6000 X63.675 Y73.014
G1 F1200 X64.407 Y72.485 E22.89437
G1 X65.183 Y72.023 E22.92441
G1 X65.997 Y71.632 E22.95444
G1 X66.842 Y71.313 E22.98448
G1 X67.712 Y71.071 E23.01452
G1 X68.6 Y70.907 E23.04455
G1 X69.723 Y70.813 E23.08204
G1 X70.33 Y70.8 E23.10223
G1 X149.293 Y70.8 E25.72855
G1 X149.439 Y70.801 E25.73341
G1 X150.137 Y70.811 E25.75662
G1 X151.039 Y70.864 E25.78668
G1 X151.932 Y70.996 E25.8167
G1 X152.81 Y71.207 E25.84673
G1 X153.666 Y71.495 E25.87677
G1 X154.493 Y71.857 E25.9068
G1 X155.285 Y72.292 E25.93685
G1 X156.036 Y72.794 E25.9669
G1 X156.739 Y73.361 E25.99694
G1 X157.389 Y73.988 E26.02697
G1 X157.981 Y74.67 E26.05701
G1 X158.511 Y75.401 E26.08704
G1 X158.973 Y76.177 E26.11708
G1 X159.366 Y76.99 E26.14711
G1 X159.684 Y77.835 E26.17714
G1 X159.927 Y78.705 E26.20719
G1 X160.092 Y79.593 E26.23723
G1 X160.187 Y80.723 E26.27494
G1 X160.2 Y81.33 E26.29514
G1 X160.2 Y138.248 E28.18824
G1 X160.189 Y139.11 E28.21691
G1 X160.137 Y140.012 E28.24696
G1 X160.004 Y140.905 E28.27699
G1 X159.794 Y141.784 E28.30705
G1 X159.507 Y142.64 E28.33708
G1 X159.145 Y143.467 E28.3671
G1 X158.711 Y144.259 E28.39714
G1 X158.209 Y145.01 E28.42719
G1 X157.642 Y145.713 E28.45722
G1 X157.016 Y146.364 E28.48726
G1 X156.334 Y146.956 E28.5173
G1 X155.603 Y147.486 E28.54733
G1 X154.827 Y147.949 E28.57739
G1 X154.014 Y148.342 E28.60742
G1 X153.169 Y148.661 E28.63746
G1 X152.299 Y148.904 E28.66751
G1 X151.412 Y149.069 E28.69751
G1 X150.339 Y149.163 E28.73334
G1 X149.434 Y149.194 E28.76346
G1 X149.085 Y149.2 E28.77507
G1 X70.749 Y149.2 E31.38053
G1 X70.603 Y149.199 E31.38539
G1 X69.905 Y149.189 E31.40861
G1 X69.003 Y149.136 E31.43866
G1 X68.11 Y149.004 E31.46868
G1 X67.232 Y148.793 E31.49872
G1 X66.376 Y148.505 E31.52875
G1 X65.549 Y148.143 E31.55878
G1 X64.757 Y147.708 E31.58883
G1 X63.827 Y147.071 E31.62633
G1 X63.134 Y146.493 E31.65634
G1 X62.494 Y145.855 E31.6864
G1 X61.914 Y145.163 E31.71643
G1 X61.397 Y144.423 E31.74645
G1 X60.947 Y143.64 E31.77649
G1 X60.568 Y142.82 E31.80654
G1 X60.264 Y141.97 E31.83656
G1 X60.036 Y141.096 E31.8666
G1 X59.886 Y140.205 E31.89665
G1 X59.81 Y139.094 E31.93369
G1 X59.8 Y138.282 E31.9607
G1 X59.8 Y81.674 E33.84349
G1 X59.801 Y81.521 E33.84858
G1 X59.811 Y80.856 E33.8707
G1 X59.865 Y79.954 E33.90076
G1 X59.998 Y79.061 E33.93078
G1 X60.209 Y78.183 E33.96082
G1 X60.498 Y77.327 E33.99087
G1 X60.861 Y76.5 E34.02091
G1 X61.295 Y75.709 E34.05092
G1 X61.798 Y74.958 E34.08098
G1 X62.366 Y74.256 E34.11101
G1 X62.993 Y73.606 E34.14105
G1 X63.675 Y73.014 E34.17109
G1 F2700 E29.17109
;MESH:Dispenser Top.stl
G0 F6000 X70.414 Y80.335
G0 X70.414 Y81.414
G0 X71 Y138
;TYPE:WALL-INNER
G1 F2700 E34.17109
G1 F1200 X71 Y82 E36.03366
G1 X149 Y82 E38.62795
G1 X149 Y138 E40.49051
G1 X71 Y138 E43.0848
G0 F6000 X70.6 Y138.4
G1 F1200 X70.6 Y81.6 E44.97398
G1 X149.4 Y81.6 E47.59488
G1 X149.4 Y138.4 E49.48405
G1 X70.6 Y138.4 E52.10495
G0 F6000 X70.2 Y138.8
;TYPE:WALL-OUTER
G1 F1200 X70.2 Y81.2 E54.02074
G1 X149.8 Y81.2 E56.66824
G1 X149.8 Y138.8 E58.58403
G1 X70.2 Y138.8 E61.23153
G0 F6000 X70.47 Y138.53
G0 X71.11 Y137.61
G0 X71.39 Y137.61
;TYPE:SKIN
G1 F1200 X71.39 Y82.39 E63.06816
G1 X148.61 Y82.39 E65.63651
G1 X148.61 Y137.61 E67.47313
G1 X71.39 Y137.61 E70.04148
G0 F6000 X71.83 Y137.449
G1 F1200 X71.55 Y137.169 E70.05465
G0 F6000 X71.55 Y136.603
G1 F1200 X72.395 Y137.449 E70.09442
G0 F6000 X72.961 Y137.449
G1 F1200 X71.55 Y136.038 E70.16079
G0 F6000 X71.55 Y135.472
G1 F1200 X73.527 Y137.449 E70.25378
G0 F6000 X74.092 Y137.449
G1 F1200 X71.55 Y134.906 E70.37337
G0 F6000 X71.55 Y134.341
G1 F1200 X74.658 Y137.449 E70.51956
G0 F6000 X75.224 Y137.449
G1 F1200 X71.55 Y133.775 E70.69238
G0 F6000 X71.55 Y133.209
G1 F1200 X75.789 Y137.449 E70.89179
G0 F6000 X76.355 Y137.449
G1 F1200 X71.55 Y132.644 E71.1178
G0 F6000 X71.55 Y132.078
G1 F1200 X76.921 Y137.449 E71.37044
G0 F6000 X77.486 Y137.449
G1 F1200 X71.55 Y131.512 E71.64967
G0 F6000 X71.55 Y130.946
G1 F1200 X78.052 Y137.449 E71.95553
G0 F6000 X78.618 Y137.449
G1 F1200 X71.55 Y130.381 E72.28799
G0 F6000 X71.55 Y129.815
G1 F1200 X79.183 Y137.449 E72.64704
G0 F6000 X79.749 Y137.449
G1 F1200 X71.55 Y129.249 E73.03272
G0 F6000 X71.55 Y128.684
G1 F1200 X80.315 Y137.449 E73.445
G0 F6000 X80.88 Y137.449
G1 F1200 X71.55 Y128.118 E73.88388
G0 F6000 X71.55 Y127.552
G1 F1200 X81.446 Y137.449 E74.34938
G0 F6000 X82.012 Y137.449
G1 F1200 X71.55 Y126.987 E74.84148
G0 F6000 X71.55 Y126.421
G1 F1200 X82.578 Y137.449 E75.3602
G0 F6000 X83.143 Y137.449
G1 F1200 X71.55 Y125.855 E75.90553
G0 F6000 X71.55 Y125.29
G1 F1200 X83.709 Y137.449 E76.47745
G0 F6000 X84.275 Y137.449
G1 F1200 X71.55 Y124.724 E77.07599
G0 F6000 X71.55 Y124.158
G1 F1200 X84.84 Y137.449 E77.70114
G0 F6000 X85.406 Y137.449
G1 F1200 X71.55 Y123.593 E78.35288
G0 F6000 X71.55 Y123.027
G1 F1200 X85.972 Y137.449 E79.03125
G0 F6000 X86.537 Y137.449
G1 F1200 X71.55 Y122.461 E79.73621
G0 F6000 X71.55 Y121.896
G1 F1200 X87.103 Y137.449 E80.46778
G0 F6000 X87.669 Y137.449
G1 F1200 X71.55 Y121.33 E81.22597
G0 F6000 X71.55 Y120.764
G1 F1200 X88.234 Y137.449 E82.01076
G0 F6000 X88.8 Y137.449
G1 F1200 X71.55 Y120.198 E82.82217
G0 F6000 X71.55 Y119.633
G1 F1200 X89.366 Y137.449 E83.66018
G0 F6000 X89.931 Y137.449
G1 F1200 X71.55 Y119.067 E84.52479
G0 F6000 X71.55 Y118.501
G1 F1200 X90.497 Y137.449 E85.41602
G0 F6000 X91.063 Y137.449
G1 F1200 X71.55 Y117.936 E86.33385
G0 F6000 X71.55 Y117.37
G1 F1200 X91.629 Y137.449 E87.2783
G0 F6000 X92.194 Y137.449
G1 F1200 X71.55 Y116.804 E88.24936
G0 F6000 X71.55 Y116.239
G1 F1200 X92.76 Y137.449 E89.24701
G0 F6000 X93.326 Y137.449
G1 F1200 X71.55 Y115.673 E90.27129
G0 F6000 X71.55 Y115.107
G1 F1200 X93.891 Y137.449 E91.32216
G0 F6000 X94.457 Y137.449
G1 F1200 X71.55 Y114.542 E92.39964
G0 F6000 X71.55 Y113.976
G1 F1200 X95.023 Y137.449 E93.50374
G0 F6000 X95.588 Y137.449
G1 F1200 X71.55 Y113.41 E94.63443
G0 F6000 X71.55 Y112.845
G1 F1200 X96.154 Y137.449 E95.79173
G0 F6000 X96.72 Y137.449
G1 F1200 X71.55 Y112.279 E96.97565
G0 F6000 X71.55 Y111.713
G1 F1200 X97.285 Y137.449 E98.18617
G0 F6000 X97.851 Y137.449
G1 F1200 X71.55 Y111.147 E99.42331
G0 F6000 X71.55 Y110.582
G1 F1200 X98.417 Y137.449 E100.68705
G0 F6000 X98.982 Y137.449
G1 F1200 X71.55 Y110.016 E101.97739
G0 F6000 X71.55 Y109.45
G1 F1200 X99.548 Y137.449 E103.29436
G0 F6000 X100.114 Y137.449
G1 F1200 X71.55 Y108.885 E104.63792
G0 F6000 X71.55 Y108.319
G1 F1200 X100.679 Y137.449 E106.00808
G0 F6000 X101.245 Y137.449
G1 F1200 X71.55 Y107.753 E107.40487
G0 F6000 X71.55 Y107.188
G1 F1200 X101.811 Y137.449 E108.82825
G0 F6000 X102.377 Y137.449
G1 F1200 X71.55 Y106.622 E110.27826
G0 F6000 X71.55 Y106.056
G1 F1200 X102.942 Y137.449 E111.75487
G0 F6000 X103.508 Y137.449
G1 F1200 X71.55 Y105.491 E113.25807
G0 F6000 X71.55 Y104.925
G1 F1200 X104.074 Y137.449 E114.7879
G0 F6000 X104.639 Y137.449
G1 F1200 X71.55 Y104.359 E116.34433
G0 F6000 X71.55 Y103.794
G1 F1200 X105.205 Y137.449 E117.92736
G0 F6000 X105.771 Y137.449
G1 F1200 X71.55 Y103.228 E119.53701
G0 F6000 X71.55 Y102.662
G1 F1200 X106.336 Y137.449 E121.17326
G0 F6000 X106.902 Y137.449
G1 F1200 X71.55 Y102.097 E122.83611
G0 F6000 X71.55 Y101.531
G1 F1200 X107.468 Y137.449 E124.52558
G0 F6000 X108.033 Y137.449
G1 F1200 X71.55 Y100.965 E126.24165
G0 F6000 X71.55 Y100.399
G1 F1200 X108.599 Y137.449 E127.98435
G0 F6000 X109.165 Y137.449
G1 F1200 X71.55 Y99.834 E129.75364
G0 F6000 X71.55 Y99.268
G1 F1200 X109.73 Y137.449 E131.54954
G0 F6000 X110.296 Y137.449
G1 F1200 X71.55 Y98.702 E133.37205
G0 F6000 X71.55 Y98.137
G1 F1200 X110.862 Y137.449 E135.22117
G0 F6000 X111.428 Y137.449
G1 F1200 X71.55 Y97.571 E137.09691
G0 F6000 X71.55 Y97.005
G1 F1200 X111.993 Y137.449 E138.99925
G0 F6000 X112.559 Y137.449
G1 F1200 X71.55 Y96.44 E140.92818
G0 F6000 X71.55 Y95.874
G1 F1200 X113.125 Y137.449 E142.88375
G0 F6000 X113.69 Y137.449
G1 F1200 X71.55 Y95.308 E144.86591
G0 F6000 X71.55 Y94.743
G1 F1200 X114.256 Y137.449 E146.87466
G0 F6000 X114.822 Y137.449
G1 F1200 X71.55 Y94.177 E148.91005
G0 F6000 X71.55 Y93.611
G1 F1200 X115.387 Y137.449 E150.97203
G0 F6000 X115.953 Y137.449
G1 F1200 X71.55 Y93.046 E153.06061
G0 F6000 X71.55 Y92.48
G1 F1200 X116.519 Y137.449 E155.17581
G0 F6000 X117.084 Y137.449
G1 F1200 X71.55 Y91.914 E157.31762
G0 F6000 X71.55 Y91.349
G1 F1200 X117.65 Y137.449 E159.48602
G0 F6000 X118.216 Y137.449
G1 F1200 X71.55 Y90.783 E161.68104
G0 F6000 X71.55 Y90.217
G1 F1200 X118.781 Y137.449 E163.90267
G0 F6000 X119.347 Y137.449
G1 F1200 X71.55 Y89.651 E166.15092
G0 F6000 X71.55 Y89.086
G1 F1200 X119.913 Y137.449 E168.42576
G0 F6000 X120.478 Y137.449
G1 F1200 X71.55 Y88.52 E170.72721
G0 F6000 X71.55 Y87.954
G1 F1200 X121.044 Y137.449 E173.05528
G0 F6000 X121.61 Y137.449
G1 F1200 X71.55 Y87.389 E175.40995
G0 F6000 X71.55 Y86.823
G1 F1200 X122.176 Y137.449 E177.79124
G0 F6000 X122.741 Y137.449
G1 F1200 X71.55 Y86.257 E180.19913
G0 F6000 X71.55 Y85.692
G1 F1200 X123.307 Y137.449 E182.63362
G0 F6000 X123.873 Y137.449
G1 F1200 X71.55 Y85.126 E185.09474
G0 F6000 X71.55 Y84.56
G1 F1200 X124.438 Y137.449 E187.58245
G0 F6000 X125.004 Y137.449
G1 F1200 X71.55 Y83.995 E190.09676
G0 F6000 X71.55 Y83.429
G1 F1200 X125.57 Y137.449 E192.6377
G0 F6000 X126.135 Y137.449
G1 F1200 X71.55 Y82.863 E195.20523
G0 F6000 X71.801 Y82.549
G1 F1200 X126.701 Y137.449 E197.78756
G0 F6000 X127.267 Y137.449
G1 F1200 X72.367 Y82.549 E200.36989
G0 F6000 X72.933 Y82.549
G1 F1200 X127.832 Y137.449 E202.95219
G0 F6000 X128.398 Y137.449
G1 F1200 X73.498 Y82.549 E205.53452
G0 F6000 X74.064 Y82.549
G1 F1200 X128.964 Y137.449 E208.11685
G0 F6000 X129.529 Y137.449
G1 F1200 X74.63 Y82.549 E210.69915
G0 F6000 X75.195 Y82.549
G1 F1200 X130.095 Y137.449 E213.28148
G0 F6000 X130.661 Y137.449
G1 F1200 X75.761 Y82.549 E215.86381
G0 F6000 X76.327 Y82.549
G1 F1200 X131.226 Y137.449 E218.44611
G0 F6000 X131.792 Y137.449
G1 F1200 X76.892 Y82.549 E221.02844
G0 F6000 X77.458 Y82.549
