;FLAVOR:Marlin
;TIME:2398
;Filament used: 2.55631m
;Layer height: 0.2
;MINX:74
;MINY:59
;MINZ:0.2
;MAXX:146
;MAXY:161
;MAXZ:2
;Generated with Cura_SteamEngine 4.5.0
M140 S50
M105
M190 S50
M104 S200
M105
M109 S200
M82 ;absolute extrusion mode
M201 X500.00 Y500.00 Z100.00 E5000.00 ;Setup machine max acceleration
M203 X500.00 Y500.00 Z10.00 E50.00 ;Setup machine max feedrate
M204 P500.00 R1000.00 T500.00 ;Setup Print/Retract/Travel acceleration
M205 X8.00 Y8.00 Z0.40 E5.00 ;Setup Jerk
M220 S100 ;Reset Feedrate
M221 S100 ;Reset Flowrate

G28 ;Home

G92 E0 ;Reset Extruder
G1 Z2.0 F3000 ;Move Z Axis up
G1 X10.1 Y20 Z0.28 F5000.0 ;Move to start position
G1 X10.1 Y200.0 Z0.28 F1500.0 E15 ;Draw the first line
G1 X10.4 Y200.0 Z0.28 F5000.0 ;Move to side a little
G1 X10.4 Y20 Z0.28 F1500.0 E30 ;Draw the second line
G92 E0 ;Reset Extruder
G1 Z2.0 F3000 ;Move Z Axis up

G92 E0
G92 E0
G1 F2700 E-5
;LAYER_COUNT:10
;LAYER:0
M107
G0 F6000 X76.566 Y62.958 Z0.2
;TYPE:SKIRT
G1 F2700 E0
G1 F1200 X77.198 Y62.264 E0.03122
G1 X77.886 Y61.627 E0.0624
G1 X78.626 Y61.051 E0.09359
G1 X79.412 Y60.539 E0.12479
G1 X80.239 Y60.097 E0.15598
G1 X81.101 Y59.727 E0.18718
G1 X81.991 Y59.431 E0.21838
G1 X82.903 Y59.213 E0.24957
G1 X83.83 Y59.072 E0.28075
G1 X84.701 Y59.013 E0.30979
G1 X85.33 Y59 E0.33071
G1 X134.451 Y59.001 E1.96448
G1 X135.149 Y59.011 E1.9877
G1 X136.085 Y59.065 E2.01889
G1 X137.013 Y59.197 E2.05006
G1 X137.927 Y59.409 E2.08127
G1 X138.819 Y59.698 E2.11245
G1 X139.684 Y60.061 E2.14366
G1 X140.514 Y60.497 E2.17484
G1 X141.305 Y61.002 E2.20605
G1 X142.049 Y61.573 E2.23725
G1 X142.742 Y62.205 E2.26844
G1 X143.379 Y62.893 E2.29963
G1 X143.954 Y63.634 E2.33082
G1 X144.465 Y64.42 E2.362
G1 X144.907 Y65.248 E2.39322
G1 X145.276 Y66.11 E2.42441
G1 X145.571 Y67 E2.45559
G1 X145.789 Y67.912 E2.48678
G1 X145.929 Y68.84 E2.51799
G1 X145.987 Y69.701 E2.5467
G1 X146 Y70.33 E2.56762
G1 X146 Y149.264 E5.19298
G1 X145.99 Y150.127 E5.22168
G1 X145.939 Y151.064 E5.25289
G1 X145.807 Y151.992 E5.28407
G1 X145.598 Y152.906 E5.31525
G1 X145.311 Y153.799 E5.34645
G1 X144.949 Y154.665 E5.37767
G1 X144.515 Y155.496 E5.40885
G1 X144.011 Y156.287 E5.44005
G1 X143.442 Y157.032 E5.47123
G1 X142.811 Y157.727 E5.50245
G1 X142.124 Y158.365 E5.53363
G1 X141.385 Y158.942 E5.56481
G1 X140.599 Y159.454 E5.59601
G1 X139.773 Y159.897 E5.62719
G1 X138.911 Y160.269 E5.65842
G1 X138.022 Y160.565 E5.68958
G1 X137.11 Y160.785 E5.72078
G1 X136.183 Y160.926 E5.75197
G1 X135.299 Y160.987 E5.78144
G1 X134.67 Y161 E5.80237
G1 X85.565 Y160.999 E7.43561
G1 X84.867 Y160.99 E7.45882
G1 X83.931 Y160.938 E7.49
G1 X83.002 Y160.806 E7.52121
G1 X82.088 Y160.596 E7.5524
G1 X81.195 Y160.309 E7.5836
G1 X80.33 Y159.946 E7.6148
G1 X79.499 Y159.512 E7.64598
G1 X78.708 Y159.008 E7.67718
G1 X77.963 Y158.438 E7.70838
G1 X77.269 Y157.807 E7.73957
G1 X76.632 Y157.12 E7.77074
G1 X76.055 Y156.38 E7.80195
G1 X75.543 Y155.594 E7.83315
G1 X75.1 Y154.767 E7.86435
G1 X74.729 Y153.906 E7.89553
G1 X74.433 Y153.016 E7.92673
G1 X74.214 Y152.104 E7.95792
G1 X74.073 Y151.177 E7.98911
G1 X74.013 Y150.288 E8.01875
G1 X74 Y149.658 E8.0397
G1 X74 Y70.674 E10.66672
G1 X74.01 Y69.86 E10.6938
G1 X74.063 Y68.924 E10.72498
G1 X74.195 Y67.995 E10.75619
G1 X74.406 Y67.081 E10.78739
G1 X74.694 Y66.189 E10.81856
G1 X75.057 Y65.324 E10.84976
G1 X75.492 Y64.493 E10.88096
G1 X75.996 Y63.703 E10.91213
G1 X76.566 Y62.958 E10.94333
G0 F6000 X76.961 Y63.111
G1 F1200 X77.589 Y62.439 E10.97392
G1 X78.274 Y61.823 E11.00456
G1 X79.01 Y61.27 E11.03518
G1 X79.791 Y60.782 E11.06581
G1 X80.611 Y60.364 E11.09642
G1 X81.465 Y60.019 E11.12706
G1 X82.345 Y59.749 E11.15767
G1 X83.245 Y59.557 E11.18828
G1 X84.159 Y59.443 E11.21891
G1 X84.712 Y59.413 E11.23733
G1 X85.33 Y59.4 E11.25789
G1 X134.445 Y59.401 E12.89147
G1 X135.143 Y59.411 E12.91468
G1 X136.062 Y59.464 E12.9453
G1 X136.973 Y59.597 E12.97592
G1 X137.869 Y59.808 E13.00654
G1 X138.743 Y60.096 E13.03714
G1 X139.59 Y60.459 E13.06779
G1 X140.401 Y60.894 E13.0984
G1 X141.171 Y61.398 E13.12901
G1 X141.895 Y61.967 E13.15964
G1 X142.567 Y62.597 E13.19028
G1 X143.182 Y63.282 E13.22089
G1 X143.735 Y64.018 E13.25151
G1 X144.222 Y64.799 E13.28213
G1 X144.639 Y65.62 E13.31275
G1 X144.984 Y66.474 E13.34339
G1 X145.253 Y67.354 E13.37399
G1 X145.445 Y68.255 E13.40463
G1 X145.558 Y69.168 E13.43523
G1 X145.587 Y69.712 E13.45335
G1 X145.6 Y70.33 E13.47391
G1 X145.6 Y149.264 E16.09927
G1 X145.59 Y150.122 E16.12781
G1 X145.539 Y151.041 E16.15842
G1 X145.408 Y151.953 E16.18906
G1 X145.198 Y152.849 E16.21967
G1 X144.912 Y153.724 E16.25029
G1 X144.551 Y154.571 E16.28091
G1 X144.117 Y155.383 E16.31154
G1 X143.615 Y156.155 E16.34216
G1 X143.047 Y156.88 E16.3728
G1 X142.419 Y157.553 E16.40341
G1 X141.735 Y158.169 E16.43403
G1 X141 Y158.723 E16.46464
G1 X140.22 Y159.212 E16.49526
G1 X139.4 Y159.631 E16.52589
G1 X138.547 Y159.977 E16.5565
G1 X137.667 Y160.248 E16.58713
G1 X136.767 Y160.441 E16.61774
G1 X135.853 Y160.556 E16.64838
G1 X135.288 Y160.587 E16.6672
G1 X134.67 Y160.6 E16.68776
G1 X85.57 Y160.599 E18.32084
G1 X84.872 Y160.59 E18.34405
G1 X83.953 Y160.538 E18.37467
G1 X83.042 Y160.407 E18.40528
G1 X82.146 Y160.197 E18.43589
G1 X81.271 Y159.91 E18.46652
G1 X80.424 Y159.548 E18.49715
G1 X79.612 Y159.114 E18.52778
G1 X78.841 Y158.612 E18.55838
G1 X78.116 Y158.044 E18.58901
G1 X77.443 Y157.415 E18.61965
G1 X76.828 Y156.731 E18.65024
G1 X76.274 Y155.996 E18.68085
G1 X75.786 Y155.215 E18.71148
G1 X75.367 Y154.395 E18.74211
G1 X75.021 Y153.542 E18.77273
G1 X74.751 Y152.662 E18.80334
G1 X74.558 Y151.761 E18.83399
G1 X74.444 Y150.848 E18.86459
G1 X74.413 Y150.277 E18.88361
G1 X74.4 Y149.658 E18.9042
G1 X74.4 Y70.674 E21.53122
G1 X74.41 Y69.866 E21.5581
G1 X74.462 Y68.946 E21.58875
G1 X74.594 Y68.035 E21.61936
G1 X74.805 Y67.139 E21.64998
G1 X75.092 Y66.264 E21.68061
G1 X75.455 Y65.418 E21.71123
G1 X75.889 Y64.606 E21.74185
G1 X76.392 Y63.835 E21.77247
G1 X76.961 Y63.111 E21.80309
G0 F6000 X77.355 Y63.267
G1 F1200 X77.981 Y62.617 E21.83311
G1 X78.662 Y62.024 E21.86314
G1 X79.394 Y61.494 E21.8932
G1 X80.169 Y61.031 E21.92323
G1 X80.982 Y60.638 E21.95326
G1 X81.827 Y60.318 E21.98331
G1 X82.696 Y60.075 E22.01333
G1 X83.584 Y59.909 E22.04337
G1 X84.723 Y59.813 E22.08139
G1 X85.33 Y59.8 E22.10158
G1 X134.439 Y59.801 E23.73496
G1 X135.137 Y59.811 E23.75817
G1 X136.039 Y59.864 E23.78823
G1 X136.932 Y59.996 E23.81825
G1 X137.81 Y60.207 E23.84828
G1 X138.666 Y60.495 E23.87832
G1 X139.493 Y60.857 E23.90835
G1 X140.285 Y61.292 E23.9384
G1 X141.036 Y61.794 E23.96845
G1 X141.739 Y62.361 E23.99849
G1 X142.389 Y62.988 E24.02853
G1 X142.981 Y63.67 E24.05856
G1 X143.511 Y64.401 E24.08859
G1 X143.973 Y65.177 E24.11863
G1 X144.366 Y65.99 E24.14867
G1 X144.684 Y66.835 E24.17869
G1 X144.927 Y67.705 E24.20874
G1 X145.092 Y68.593 E24.23878
G1 X145.187 Y69.723 E24.2765
G1 X145.2 Y70.33 E24.29669
G1 X145.2 Y149.264 E26.92204
G1 X145.19 Y150.117 E26.95042
G1 X145.139 Y151.019 E26.98047
G1 X145.008 Y151.913 E27.01052
G1 X144.799 Y152.791 E27.04054
G1 X144.513 Y153.648 E27.07059
G1 X144.152 Y154.476 E27.10063
G1 X143.72 Y155.268 E27.13063
G1 X143.219 Y156.02 E27.16069
G1 X142.653 Y156.724 E27.19073
G1 X142.028 Y157.375 E27.22075
G1 X141.347 Y157.969 E27.2508
G1 X140.616 Y158.5 E27.28085
G1 X139.842 Y158.964 E27.31087
G1 X139.029 Y159.358 E27.34092
G1 X138.185 Y159.678 E27.37094
G1 X137.315 Y159.923 E27.401
G1 X136.428 Y160.089 E27.43102
G1 X135.277 Y160.187 E27.46944
G1 X134.67 Y160.2 E27.48963
G1 X85.575 Y160.199 E29.12254
G1 X84.877 Y160.19 E29.14575
G1 X83.976 Y160.139 E29.17577
G1 X83.082 Y160.007 E29.20583
G1 X82.204 Y159.798 E29.23584
G1 X81.347 Y159.511 E29.2659
G1 X80.52 Y159.15 E29.29592
G1 X79.727 Y158.717 E29.32597
G1 X78.976 Y158.216 E29.35599
G1 X78.272 Y157.65 E29.38604
G1 X77.621 Y157.024 E29.41608
G1 X77.028 Y156.343 E29.44611
G1 X76.498 Y155.612 E29.47614
G1 X76.034 Y154.837 E29.50619
G1 X75.64 Y154.024 E29.53623
G1 X75.32 Y153.18 E29.56626
G1 X75.076 Y152.31 E29.59631
G1 X74.91 Y151.422 E29.62636
G1 X74.813 Y150.267 E29.66491
G1 X74.8 Y149.658 E29.68517
G1 X74.8 Y70.674 E32.31218
G1 X74.81 Y69.871 E32.33889
G1 X74.862 Y68.969 E32.36895
G1 X74.994 Y68.076 E32.39897
G1 X75.204 Y67.198 E32.429
G1 X75.491 Y66.341 E32.45905
G1 X75.853 Y65.514 E32.48908
G1 X76.286 Y64.722 E32.5191
G1 X76.788 Y63.971 E32.54915
G1 X77.355 Y63.267 E32.57921
G1 F2700 E27.57921
;MESH:Dispenser Cover.stl
G0 F6000 X84.335 Y70.414
G0 X85.414 Y70.414
G0 X133.818 Y71.182
G0 X133.798 Y93.794
G0 X128.47 Y88.988
G0 X121.732 Y88.988
G0 X116.63 Y93.383
G0 X115.514 Y99.347
G0 X117.583 Y102.889
G0 X118.157 Y103.689
G0 X118.872 Y104.471
G0 X119.675 Y105.162
G0 X120.553 Y105.753
G0 X121.314 Y106.144
G0 X123.49 Y107.013
;TYPE:WALL-INNER
G1 F2700 E32.57921
G1 F1200 X124.56 Y107.141 E32.61505
G1 X125.64 Y107.141 E32.65098
G1 X126.71 Y107.013 E32.68682
G1 X127.759 Y106.759 E32.72272
G1 X128.769 Y106.385 E32.75854
G1 X129.728 Y105.893 E32.79439
G1 X130.623 Y105.29 E32.83028
G1 X131.44 Y104.587 E32.86613
G1 X132.169 Y103.789 E32.90208
G1 X132.216 Y103.721 E32.90483
G1 X132.796 Y102.914 E32.93788
G1 X133.317 Y101.97 E32.97374
G1 X133.722 Y100.969 E33.00966
G1 X134.002 Y99.946 E33.04494
G1 X134.006 Y99.929 E33.04552
G1 X134.164 Y98.869 E33.08116
G1 X134.168 Y98.783 E33.08403
G1 X134.196 Y97.789 E33.1171
G1 X134.19 Y97.703 E33.11997
G1 X134.102 Y96.715 E33.15296
G1 X134.085 Y96.631 E33.15581
G1 X134.002 Y96.241 E33.16907
G1 X133.878 Y95.657 E33.18893
G1 X133.533 Y94.635 E33.2248
G1 X133.07 Y93.661 E33.26067
G1 X132.494 Y92.752 E33.29646
G1 X132.441 Y92.684 E33.29933
G1 X131.816 Y91.914 E33.33232
G1 X131.044 Y91.165 E33.36809
G1 X130.977 Y91.111 E33.37096
G1 X130.186 Y90.509 E33.40402
G1 X130.113 Y90.465 E33.40685
G1 X129.253 Y89.957 E33.44007
G1 X129.174 Y89.923 E33.44293
G1 X128.27 Y89.524 E33.4758
G1 X127.238 Y89.209 E33.51169
G1 X126.176 Y89.019 E33.54757
G1 X125.102 Y88.955 E33.58335
G1 X124.024 Y89.019 E33.61927
G1 X122.959 Y89.21 E33.65526
G1 X122.878 Y89.236 E33.65809
G1 X121.931 Y89.524 E33.69101
G1 X120.942 Y89.96 E33.72696
G1 X120.871 Y90.003 E33.72972
G1 X120.015 Y90.508 E33.76278
G1 X119.945 Y90.561 E33.7657
G1 X119.158 Y91.162 E33.79863
G1 X118.385 Y91.913 E33.83448
G1 X117.706 Y92.75 E33.87032
G1 X117.13 Y93.66 E33.90615
G1 X116.666 Y94.636 E33.94209
G1 X116.322 Y95.658 E33.97795
G1 X116.304 Y95.74 E33.98075
G1 X116.098 Y96.714 E34.01386
G1 X116.091 Y96.8 E34.01673
G1 X116.003 Y97.787 E34.04969
G1 X116.035 Y98.863 E34.08549
G1 X116.194 Y99.929 E34.12134
G1 X116.216 Y100.012 E34.12419
G1 X116.478 Y100.97 E34.15723
G1 X116.883 Y101.97 E34.19311
G1 X117.402 Y102.912 E34.22888
G1 X118.033 Y103.79 E34.26484
G1 X118.76 Y104.586 E34.3007
G1 X119.578 Y105.291 E34.33662
G1 X120.471 Y105.892 E34.37242
G1 X121.429 Y106.385 E34.40825
G1 X122.443 Y106.76 E34.44421
G1 X123.49 Y107.013 E34.48004
G0 F6000 X123.561 Y106.619
;TYPE:WALL-OUTER
G1 F1200 X124.584 Y106.741 E34.5143
G1 X125.616 Y106.741 E34.54863
G1 X126.639 Y106.619 E34.58289
G1 X127.642 Y106.376 E34.61722
G1 X128.608 Y106.018 E34.65148
G1 X129.524 Y105.548 E34.68573
G1 X130.38 Y104.971 E34.72006
G1 X131.161 Y104.299 E34.75433
G1 X131.856 Y103.538 E34.78861
G1 X131.891 Y103.488 E34.79064
G1 X132.457 Y102.7 E34.82291
G1 X132.955 Y101.798 E34.85718
G1 X133.342 Y100.841 E34.89151
G1 X133.614 Y99.847 E34.92579
G1 X133.765 Y98.83 E34.95998
G1 X133.768 Y98.768 E34.96205
G1 X133.796 Y97.799 E34.99429
G1 X133.791 Y97.737 E34.99636
G1 X133.705 Y96.772 E35.02858
G1 X133.693 Y96.711 E35.03065
G1 X133.492 Y95.763 E35.06288
G1 X133.162 Y94.785 E35.09721
G1 X132.719 Y93.855 E35.13147
G1 X132.168 Y92.984 E35.16575
G1 X132.129 Y92.935 E35.16784
G1 X131.52 Y92.184 E35.19999
G1 X130.78 Y91.466 E35.23429
G1 X130.731 Y91.427 E35.23637
G1 X129.961 Y90.84 E35.26858
G1 X129.908 Y90.808 E35.27063
G1 X129.072 Y90.315 E35.30291
G1 X129.016 Y90.291 E35.30494
G1 X128.13 Y89.9 E35.33715
G1 X127.144 Y89.599 E35.37144
G1 X126.129 Y89.417 E35.40574
G1 X125.1 Y89.356 E35.44002
G1 X125.038 Y89.359 E35.44209
G1 X124.071 Y89.417 E35.47431
G1 X123.055 Y89.599 E35.50864
G1 X122.995 Y89.618 E35.51073
G1 X122.071 Y89.9 E35.54286
G1 X121.127 Y90.316 E35.57717
G1 X121.074 Y90.348 E35.57923
G1 X120.239 Y90.84 E35.61147
G1 X120.188 Y90.879 E35.6136
G1 X119.42 Y91.465 E35.64573
G1 X118.681 Y92.183 E35.68
G1 X118.031 Y92.984 E35.71431
G1 X117.481 Y93.854 E35.74855
G1 X117.037 Y94.786 E35.78288
G1 X116.708 Y95.764 E35.8172
G1 X116.695 Y95.824 E35.81924
G1 X116.495 Y96.772 E35.85147
G1 X116.49 Y96.833 E35.8535
G1 X116.404 Y97.799 E35.88576
G1 X116.434 Y98.828 E35.92
G1 X116.586 Y99.848 E35.9543
G1 X116.602 Y99.908 E35.95637
G1 X116.858 Y100.842 E35.98858
G1 X117.245 Y101.798 E36.02288
G1 X117.742 Y102.699 E36.0571
G1 X117.778 Y102.75 E36.05918
G1 X118.344 Y103.538 E36.09145
G1 X119.039 Y104.299 E36.12573
G1 X119.821 Y104.972 E36.16004
G1 X120.675 Y105.547 E36.19428
G1 X121.591 Y106.018 E36.22854
G1 X122.56 Y106.377 E36.26291
G1 X123.561 Y106.619 E36.29716
G0 F6000 X123.484 Y107.052
G1 F2700 E31.29716
G0 F6000 X119.207 Y105.777
G0 X120.347 Y104.284
G0 X104.352 Y104.285
G0 X105.482 Y105.761
G0 X100.164 Y107.541
;TYPE:WALL-INNER
G1 F2700 E36.29716
G1 F1200 X101.281 Y107.407 E36.33458
G1 X102.376 Y107.142 E36.37205
G1 X103.43 Y106.752 E36.40943
G1 X104.432 Y106.238 E36.44689
G1 X105.366 Y105.609 E36.48434
G1 X106.219 Y104.875 E36.52177
G1 X106.983 Y104.039 E36.55944
G1 X107.041 Y103.954 E36.56286
G1 X107.635 Y103.128 E36.5967
G1 X108.179 Y102.142 E36.63415
G1 X108.602 Y101.097 E36.67165
G1 X108.898 Y100.011 E36.70909
G1 X109.063 Y98.908 E36.74618
G1 X109.068 Y98.798 E36.74985
G1 X109.096 Y97.781 E36.78368
G1 X109.089 Y97.671 E36.78735
G1 X108.998 Y96.657 E36.82121
G1 X108.977 Y96.55 E36.82484
G1 X108.764 Y95.551 E36.85881
G1 X108.404 Y94.485 E36.89623
G1 X107.921 Y93.467 E36.93371
G1 X107.321 Y92.521 E36.97097
G1 X107.254 Y92.435 E36.9746
G1 X106.612 Y91.643 E37.0085
G1 X105.809 Y90.865 E37.04569
G1 X105.724 Y90.796 E37.04933
G1 X104.911 Y90.178 E37.0833
G1 X104.818 Y90.122 E37.08691
G1 X103.935 Y89.6 E37.12103
G1 X103.836 Y89.558 E37.1246
G1 X102.91 Y89.148 E37.15829
G1 X101.832 Y88.819 E37.19577
G1 X100.723 Y88.621 E37.23324
G1 X99.602 Y88.554 E37.27059
G1 X98.477 Y88.621 E37.30808
G1 X97.362 Y88.821 E37.34575
G1 X97.262 Y88.853 E37.34925
G1 X96.292 Y89.148 E37.38297
G1 X95.257 Y89.604 E37.42058
G1 X95.164 Y89.661 E37.42421
G1 X94.289 Y90.177 E37.458
G1 X94.205 Y90.243 E37.46155
G1 X93.397 Y90.857 E37.49531
G1 X92.589 Y91.643 E37.5328
G1 X91.881 Y92.516 E37.57018
G1 X91.279 Y93.466 E37.60759
G1 X90.806 Y94.464 E37.64432
G1 X90.795 Y94.486 E37.64514
G1 X90.436 Y95.551 E37.68252
G1 X90.413 Y95.656 E37.6861
G1 X90.201 Y96.656 E37.72009
G1 X90.192 Y96.768 E37.72383
G1 X90.102 Y97.775 E37.75746
G1 X90.136 Y98.899 E37.79486
G1 X90.302 Y100.01 E37.83222
G1 X90.33 Y100.116 E37.83587
G1 X90.598 Y101.098 E37.86972
G1 X91.021 Y102.142 E37.90719
G1 X91.563 Y103.126 E37.94455
G1 X92.222 Y104.042 E37.98209
G1 X92.981 Y104.873 E38.01952
G1 X93.835 Y105.61 E38.05704
G1 X94.767 Y106.237 E38.0944
G1 X95.768 Y106.752 E38.13184
G1 X96.826 Y107.143 E38.16935
G1 X97.919 Y107.407 E38.20675
G1 X97.942 Y107.409 E38.20752
G1 X99.036 Y107.541 E38.24417
G1 X100.164 Y107.541 E38.28169
G0 F6000 X100.14 Y107.141
G1 F1200 X101.21 Y107.013 E38.31753
G1 X102.259 Y106.759 E38.35343
G1 X103.269 Y106.385 E38.38925
G1 X104.228 Y105.893 E38.4251
G1 X105.123 Y105.29 E38.46099
G1 X105.94 Y104.587 E38.49684
G1 X106.669 Y103.789 E38.53279
G1 X106.716 Y103.721 E38.53554
G1 X107.296 Y102.914 E38.5686
G1 X107.817 Y101.97 E38.60446
G1 X108.222 Y100.969 E38.64037
G1 X108.506 Y99.929 E38.67623
G1 X108.664 Y98.869 E38.71187
G1 X108.668 Y98.783 E38.71474
G1 X108.696 Y97.789 E38.74781
G1 X108.69 Y97.703 E38.75068
G1 X108.602 Y96.715 E38.78367
G1 X108.585 Y96.631 E38.78652
G1 X108.378 Y95.657 E38.81964
G1 X108.033 Y94.635 E38.85552
G1 X107.57 Y93.661 E38.89139
G1 X106.994 Y92.752 E38.92718
G1 X106.941 Y92.684 E38.93005
G1 X106.316 Y91.914 E38.96303
G1 X105.544 Y91.165 E38.99881
G1 X105.477 Y91.111 E39.00167
G1 X104.686 Y90.509 E39.03473
G1 X104.613 Y90.465 E39.03756
G1 X103.753 Y89.957 E39.07079
