;FLAVOR:Marlin
;TIME:19021
;Filament used: 18.5566m
;Layer height: 0.2
;MINX:59
;MINY:70
;MINZ:0.2
;MAXX:161
;MAXY:150
;MAXZ:95
;Generated with Cura_SteamEngine 4.5.0
M140 S50
M105
M190 S50
M104 S200
M105
M109 S200
M82 ;absolute extrusion mode
M201 X500.00 Y500.00 Z100.00 E5000.00 ;Setup machine max acceleration
M203 X500.00 Y500.00 Z10.00 E50.00 ;Setup machine max feedrate
M204 P500.00 R1000.00 T500.00 ;Setup Print/Retract/Travel acceleration
M205 X8.00 Y8.00 Z0.40 E5.00 ;Setup Jerk
M220 S100 ;Reset Feedrate
M221 S100 ;Reset Flowrate

G28 ;Home

G92 E0 ;Reset Extruder
G1 Z2.0 F3000 ;Move Z Axis up
G1 X10.1 Y20 Z0.28 F5000.0 ;Move to start position
G1 X10.1 Y200.0 Z0.28 F1500.0 E15 ;Draw the first line
G1 X10.4 Y200.0 Z0.28 F5000.0 ;Move to side a little
G1 X10.4 Y20 Z0.28 F1500.0 E30 ;Draw the second line
G92 E0 ;Reset Extruder
G1 Z2.0 F3000 ;Move Z Axis up

G92 E0
G92 E0
G1 F2700 E-5
;LAYER_COUNT:475
;LAYER:0
M107
G0 F6000 X62.896 Y72.641 Z0.2
;TYPE:SKIRT
G1 F2700 E0
G1 F1200 X63.637 Y72.065 E0.03122
G1 X64.424 Y71.555 E0.06241
G1 X65.251 Y71.114 E0.09358
G1 X66.113 Y70.744 E0.12478
G1 X67.004 Y70.45 E0.15599
G1 X67.916 Y70.232 E0.18717
G1 X68.844 Y70.093 E0.21838
G1 X69.633 Y70.037 E0.24469
G1 X70.538 Y70.006 E0.27481
G1 X70.915 Y70 E0.28735
G1 X149.293 Y70 E2.89421
G1 X149.451 Y70.001 E2.89947
G1 X150.149 Y70.011 E2.92269
G1 X151.085 Y70.065 E2.95387
G1 X152.013 Y70.197 E2.98505
G1 X152.927 Y70.409 E3.01625
G1 X153.819 Y70.698 E3.04744
G1 X154.684 Y71.061 E3.07864
G1 X155.514 Y71.497 E3.10982
G1 X156.305 Y72.002 E3.14104
G1 X157.049 Y72.573 E3.17223
G1 X157.742 Y73.205 E3.20342
G1 X158.379 Y73.893 E3.23461
G1 X158.954 Y74.634 E3.2658
G1 X159.465 Y75.42 E3.29699
G1 X159.907 Y76.248 E3.3282
G1 X160.276 Y77.11 E3.35939
G1 X160.571 Y78 E3.39058
G1 X160.789 Y78.912 E3.42176
G1 X160.929 Y79.84 E3.45298
G1 X160.987 Y80.701 E3.48168
G1 X161 Y81.33 E3.50261
G1 X161 Y138.264 E5.39624
G1 X160.99 Y139.127 E5.42494
G1 X160.939 Y140.064 E5.45615
G1 X160.807 Y140.992 E5.48733
G1 X160.598 Y141.906 E5.51851
G1 X160.311 Y142.799 E5.54971
G1 X159.949 Y143.665 E5.58093
G1 X159.515 Y144.496 E5.61211
G1 X159.011 Y145.287 E5.64331
G1 X158.442 Y146.032 E5.67449
G1 X157.811 Y146.727 E5.70571
G1 X157.124 Y147.365 E5.73689
G1 X156.385 Y147.942 E5.76808
G1 X155.599 Y148.454 E5.79928
G1 X154.773 Y148.897 E5.83045
G1 X153.911 Y149.269 E5.86168
G1 X153.022 Y149.565 E5.89284
G1 X152.11 Y149.785 E5.92404
G1 X151.183 Y149.926 E5.95523
G1 X150.299 Y149.987 E5.9847
G1 X149.67 Y150 E6.00563
G1 X70.707 Y150 E8.63195
G1 X69.867 Y149.99 E8.65989
G1 X68.931 Y149.938 E8.69107
G1 X68.002 Y149.806 E8.72228
G1 X67.088 Y149.596 E8.75347
G1 X66.195 Y149.309 E8.78467
G1 X65.33 Y148.946 E8.81587
G1 X64.499 Y148.512 E8.84705
G1 X63.708 Y148.008 E8.87824
G1 X62.963 Y147.438 E8.90944
G1 X62.269 Y146.807 E8.94064
G1 X61.632 Y146.12 E8.9718
G1 X61.055 Y145.38 E9.00301
G1 X60.543 Y144.594 E9.03421
G1 X60.1 Y143.767 E9.06541
G1 X59.729 Y142.906 E9.0966
G1 X59.433 Y142.016 E9.12779
G1 X59.214 Y141.104 E9.15899
G1 X59.073 Y140.177 E9.19018
G1 X59.013 Y139.288 E9.21981
G1 X59 Y138.658 E9.24077
G1 X59 Y81.712 E11.1348
G1 X59.001 Y81.55 E11.14019
G1 X59.011 Y80.869 E11.16284
G1 X59.065 Y79.933 E11.19402
G1 X59.198 Y79.005 E11.22521
G1 X59.41 Y78.091 E11.25641
G1 X59.699 Y77.199 E11.2876
G1 X60.063 Y76.335 E11.31878
G1 X60.499 Y75.504 E11.34999
G1 X61.005 Y74.714 E11.3812
G1 X61.575 Y73.97 E11.41237
G1 X62.207 Y73.277 E11.44357
G1 X62.896 Y72.641 E11.47475
G0 F6000 X63.285 Y72.838
G1 F1200 X64.021 Y72.285 E11.50537
G1 X64.803 Y71.798 E11.53601
G1 X65.623 Y71.381 E11.56661
G1 X66.477 Y71.037 E11.59723
G1 X67.358 Y70.768 E11.62787
G1 X68.258 Y70.577 E11.65847
G1 X69.172 Y70.464 E11.6891
G1 X69.647 Y70.437 E11.70492
G1 X70.552 Y70.406 E11.73504
G1 X70.915 Y70.4 E11.74712
G1 X149.293 Y70.4 E14.35398
G1 X149.445 Y70.401 E14.35904
G1 X150.143 Y70.411 E14.38225
G1 X151.062 Y70.464 E14.41287
G1 X151.973 Y70.597 E14.44349
G1 X152.869 Y70.808 E14.47411
G1 X153.743 Y71.096 E14.50472
G1 X154.59 Y71.459 E14.53537
G1 X155.401 Y71.894 E14.56597
G1 X156.171 Y72.398 E14.59658
G1 X156.895 Y72.967 E14.62721
G1 X157.567 Y73.597 E14.65785
G1 X158.182 Y74.282 E14.68847
G1 X158.735 Y75.018 E14.71908
G1 X159.222 Y75.799 E14.7497
G1 X159.639 Y76.62 E14.78032
G1 X159.984 Y77.474 E14.81096
G1 X160.253 Y78.354 E14.84156
G1 X160.445 Y79.255 E14.8722
G1 X160.558 Y80.168 E14.9028
G1 X160.587 Y80.712 E14.92092
G1 X160.6 Y81.33 E14.94148
G1 X160.6 Y138.264 E16.83511
G1 X160.59 Y139.122 E16.86365
G1 X160.539 Y140.041 E16.89427
G1 X160.408 Y140.953 E16.92491
G1 X160.198 Y141.849 E16.95552
G1 X159.912 Y142.724 E16.98614
G1 X159.551 Y143.571 E17.01676
G1 X159.117 Y144.383 E17.04738
G1 X158.615 Y145.155 E17.07801
G1 X158.047 Y145.88 E17.10864
G1 X157.419 Y146.553 E17.13926
G1 X156.735 Y147.169 E17.16988
G1 X156 Y147.723 E17.20049
G1 X155.22 Y148.212 E17.23111
G1 X154.4 Y148.631 E17.26174
G1 X153.547 Y148.977 E17.29235
G1 X152.667 Y149.248 E17.32298
G1 X151.767 Y149.441 E17.35359
G1 X150.853 Y149.556 E17.38423
G1 X150.288 Y149.587 E17.40305
G1 X149.67 Y149.6 E17.42361
G1 X70.707 Y149.6 E20.04993
G1 X69.872 Y149.59 E20.0777
G1 X68.953 Y149.538 E20.10832
G1 X68.042 Y149.407 E20.13893
G1 X67.146 Y149.197 E20.16954
G1 X66.271 Y148.91 E20.20017
G1 X65.424 Y148.548 E20.2308
G1 X64.612 Y148.114 E20.26143
G1 X63.841 Y147.612 E20.29203
G1 X63.116 Y147.044 E20.32266
G1 X62.443 Y146.415 E20.3533
G1 X61.828 Y145.731 E20.38389
G1 X61.274 Y144.996 E20.41451
G1 X60.786 Y144.215 E20.44514
G1 X60.367 Y143.395 E20.47576
G1 X60.021 Y142.542 E20.50638
G1 X59.751 Y141.662 E20.53699
G1 X59.558 Y140.761 E20.56764
G1 X59.444 Y139.848 E20.59824
G1 X59.413 Y139.277 E20.61726
G1 X59.4 Y138.658 E20.63786
G1 X59.4 Y81.712 E22.53189
G1 X59.401 Y81.556 E22.53708
G1 X59.411 Y80.875 E22.55973
G1 X59.465 Y79.956 E22.59035
G1 X59.598 Y79.045 E22.62097
G1 X59.809 Y78.149 E22.65159
G1 X60.098 Y77.275 E22.6822
G1 X60.461 Y76.429 E22.71282
G1 X60.896 Y75.618 E22.74343
G1 X61.4 Y74.847 E22.77407
G1 X61.97 Y74.124 E22.80469
G1 X62.599 Y73.452 E22.8353
G1 X63.285 Y72.838 E22.86592
G0 F6000 X63.673 Y73.039
G1 F1200 X64.404 Y72.509 E22.89595
G1 X65.18 Y72.047 E22.92599
G1 X65.994 Y71.655 E22.95604
G1 X66.839 Y71.337 E22.98607
G1 X67.709 Y71.094 E23.01612
G1 X68.597 Y70.929 E23.04616
G1 X69.661 Y70.837 E23.08168
G1 X70.566 Y70.806 E23.11179
G1 X70.915 Y70.8 E23.1234
G1 X149.293 Y70.8 E25.73027
G1 X149.439 Y70.801 E25.73512
G1 X150.137 Y70.811 E25.75834
G1 X151.039 Y70.864 E25.78839
G1 X151.932 Y70.996 E25.81842
G1 X152.81 Y71.207 E25.84845
G1 X153.666 Y71.495 E25.87849
G1 X154.493 Y71.857 E25.90852
G1 X155.285 Y72.292 E25.93857
G1 X156.036 Y72.794 E25.96861
G1 X156.739 Y73.361 E25.99865
G1 X157.389 Y73.988 E26.02869
G1 X157.981 Y74.67 E26.05873
G1 X158.511 Y75.401 E26.08876
G1 X158.973 Y76.177 E26.1188
G1 X159.366 Y76.99 E26.14883
G1 X159.684 Y77.835 E26.17886
G1 X159.927 Y78.705 E26.20891
G1 X160.092 Y79.593 E26.23895
G1 X160.187 Y80.723 E26.27666
G1 X160.2 Y81.33 E26.29686
G1 X160.2 Y138.264 E28.19049
G1 X160.19 Y139.117 E28.21886
G1 X160.139 Y140.019 E28.24891
G1 X160.008 Y140.913 E28.27896
G1 X159.799 Y141.791 E28.30898
G1 X159.513 Y142.648 E28.33903
G1 X159.152 Y143.476 E28.36907
G1 X158.72 Y144.268 E28.39908
G1 X158.219 Y145.02 E28.42913
G1 X157.653 Y145.724 E28.45918
G1 X157.028 Y146.375 E28.48919
G1 X156.347 Y146.969 E28.51925
G1 X155.616 Y147.5 E28.5493
G1 X154.842 Y147.964 E28.57931
G1 X154.029 Y148.358 E28.60936
G1 X153.185 Y148.678 E28.63938
G1 X152.315 Y148.923 E28.66945
G1 X151.428 Y149.089 E28.69946
G1 X150.277 Y149.187 E28.73788
G1 X149.67 Y149.2 E28.75807
G1 X70.707 Y149.2 E31.38439
G1 X69.877 Y149.19 E31.412
G1 X68.976 Y149.139 E31.44202
G1 X68.082 Y149.007 E31.47207
G1 X67.204 Y148.798 E31.50209
G1 X66.347 Y148.511 E31.53215
G1 X65.52 Y148.15 E31.56217
G1 X64.727 Y147.717 E31.59222
G1 X63.976 Y147.216 E31.62224
G1 X63.272 Y146.65 E31.65229
G1 X62.621 Y146.024 E31.68233
G1 X62.028 Y145.343 E31.71236
G1 X61.498 Y144.612 E31.74239
G1 X61.034 Y143.837 E31.77243
G1 X60.64 Y143.024 E31.80248
G1 X60.32 Y142.18 E31.8325
G1 X60.076 Y141.31 E31.86256
G1 X59.91 Y140.422 E31.8926
G1 X59.813 Y139.267 E31.93115
G1 X59.8 Y138.658 E31.95141
G1 X59.8 Y81.712 E33.84545
G1 X59.801 Y81.562 E33.85043
G1 X59.811 Y80.881 E33.87309
G1 X59.864 Y79.98 E33.90311
G1 X59.997 Y79.086 E33.93317
G1 X60.208 Y78.208 E33.9632
G1 X60.496 Y77.352 E33.99324
G1 X60.859 Y76.525 E34.02328
G1 X61.294 Y75.734 E34.05331
G1 X61.796 Y74.983 E34.08335
G1 X62.363 Y74.281 E34.11336
G1 X62.99 Y73.631 E34.1434
G1 X63.673 Y73.039 E34.17346
G1 F2700 E29.17346
;MESH:Dispenser Top.stl
G0 F6000 X70.414 Y80.335
G0 X70.414 Y81.414
G0 X71 Y138
;TYPE:WALL-INNER
G1 F2700 E34.17346
G1 F1200 X71 Y82 E36.03603
G1 X149 Y82 E38.63032
G1 X149 Y138 E40.49289
G1 X71 Y138 E43.08718
G0 F6000 X70.6 Y138.4
G1 F1200 X70.6 Y81.6 E44.97636
G1 X149.4 Y81.6 E47.59725
G1 X149.4 Y138.4 E49.48643
G1 X70.6 Y138.4 E52.10733
G0 F6000 X70.2 Y138.8
;TYPE:WALL-OUTER
G1 F1200 X70.2 Y81.2 E54.02311
G1 X149.8 Y81.2 E56.67062
G1 X149.8 Y138.8 E58.5864
G1 X70.2 Y138.8 E61.23391
G0 F6000 X70.47 Y138.53
G0 X71.11 Y137.61
G0 X71.39 Y137.61
;TYPE:SKIN
G1 F1200 X71.39 Y82.39 E63.07053
G1 X148.61 Y82.39 E65.63888
G1 X148.61 Y137.61 E67.47551
G1 X71.39 Y137.61 E70.04385
G0 F6000 X71.83 Y137.449
G1 F1200 X71.55 Y137.169 E70.05702
G0 F6000 X71.55 Y136.603
G1 F1200 X72.395 Y137.449 E70.09679
G0 F6000 X72.961 Y137.449
G1 F1200 X71.55 Y136.038 E70.16316
G0 F6000 X71.55 Y135.472
G1 F1200 X73.527 Y137.449 E70.25616
G0 F6000 X74.092 Y137.449
G1 F1200 X71.55 Y134.906 E70.37575
G0 F6000 X71.55 Y134.341
G1 F1200 X74.658 Y137.449 E70.52194
G0 F6000 X75.224 Y137.449
G1 F1200 X71.55 Y133.775 E70.69475
G0 F6000 X71.55 Y133.209
G1 F1200 X75.789 Y137.449 E70.89416
G0 F6000 X76.355 Y137.449
G1 F1200 X71.55 Y132.644 E71.12018
G0 F6000 X71.55 Y132.078
G1 F1200 X76.921 Y137.449 E71.37281
G0 F6000 X77.486 Y137.449
G1 F1200 X71.55 Y131.512 E71.65205
G0 F6000 X71.55 Y130.946
G1 F1200 X78.052 Y137.449 E71.9579
G0 F6000 X78.618 Y137.449
G1 F1200 X71.55 Y130.381 E72.29036
G0 F6000 X71.55 Y129.815
G1 F1200 X79.183 Y137.449 E72.64942
G0 F6000 X79.749 Y137.449
G1 F1200 X71.55 Y129.249 E73.0351
G0 F6000 X71.55 Y128.684
G1 F1200 X80.315 Y137.449 E73.44738
G0 F6000 X80.88 Y137.449
G1 F1200 X71.55 Y128.118 E73.88625
G0 F6000 X71.55 Y127.552
G1 F1200 X81.446 Y137.449 E74.35176
G0 F6000 X82.012 Y137.449
G1 F1200 X71.55 Y126.987 E74.84386
G0 F6000 X71.55 Y126.421
G1 F1200 X82.578 Y137.449 E75.36258
G0 F6000 X83.143 Y137.449
G1 F1200 X71.55 Y125.855 E75.9079
G0 F6000 X71.55 Y125.29
G1 F1200 X83.709 Y137.449 E76.47982
G0 F6000 X84.275 Y137.449
G1 F1200 X71.55 Y124.724 E77.07837
G0 F6000 X71.55 Y124.158
G1 F1200 X84.84 Y137.449 E77.70351
G0 F6000 X85.406 Y137.449
G1 F1200 X71.55 Y123.593 E78.35526
G0 F6000 X71.55 Y123.027
G1 F1200 X85.972 Y137.449 E79.03362
G0 F6000 X86.537 Y137.449
G1 F1200 X71.55 Y122.461 E79.73859
G0 F6000 X71.55 Y121.896
G1 F1200 X87.103 Y137.449 E80.47015
G0 F6000 X87.669 Y137.449
G1 F1200 X71.55 Y121.33 E81.22834
G0 F6000 X71.55 Y120.764
G1 F1200 X88.234 Y137.449 E82.01313
G0 F6000 X88.8 Y137.449
G1 F1200 X71.55 Y120.198 E82.82454
G0 F6000 X71.55 Y119.633
G1 F1200 X89.366 Y137.449 E83.66255
G0 F6000 X89.931 Y137.449
G1 F1200 X71.55 Y119.067 E84.52716
G0 F6000 X71.55 Y118.501
G1 F1200 X90.497 Y137.449 E85.41839
G0 F6000 X91.063 Y137.449
G1 F1200 X71.55 Y117.936 E86.33623
G0 F6000 X71.55 Y117.37
G1 F1200 X91.629 Y137.449 E87.28068
G0 F6000 X92.194 Y137.449
G1 F1200 X71.55 Y116.804 E88.25173
G0 F6000 X71.55 Y116.239
G1 F1200 X92.76 Y137.449 E89.24939
G0 F6000 X93.326 Y137.449
G1 F1200 X71.55 Y115.673 E90.27366
G0 F6000 X71.55 Y115.107
G1 F1200 X93.891 Y137.449 E91.32454
G0 F6000 X94.457 Y137.449
G1 F1200 X71.55 Y114.542 E92.40201
G0 F6000 X71.55 Y113.976
G1 F1200 X95.023 Y137.449 E93.50611
G0 F6000 X95.588 Y137.449
G1 F1200 X71.55 Y113.41 E94.63681
G0 F6000 X71.55 Y112.845
G1 F1200 X96.154 Y137.449 E95.79411
G0 F6000 X96.72 Y137.449
G1 F1200 X71.55 Y112.279 E96.97803
G0 F6000 X71.55 Y111.713
G1 F1200 X97.285 Y137.449 E98.18854
G0 F6000 X97.851 Y137.449
G1 F1200 X71.55 Y111.147 E99.42569
G0 F6000 X71.55 Y110.582
G1 F1200 X98.417 Y137.449 E100.68943
G0 F6000 X98.982 Y137.449
G1 F1200 X71.55 Y110.016 E101.97977
G0 F6000 X71.55 Y109.45
G1 F1200 X99.548 Y137.449 E103.29673
G0 F6000 X100.114 Y137.449
G1 F1200 X71.55 Y108.885 E104.6403
G0 F6000 X71.55 Y108.319
G1 F1200 X100.679 Y137.449 E106.01046
G0 F6000 X101.245 Y137.449
G1 F1200 X71.55 Y107.753 E107.40724
G0 F6000 X71.55 Y107.188
G1 F1200 X101.811 Y137.449 E108.83063
G0 F6000 X102.377 Y137.449
G1 F1200 X71.55 Y106.622 E110.28064
G0 F6000 X71.55 Y106.056
G1 F1200 X102.942 Y137.449 E111.75724
G0 F6000 X103.508 Y137.449
G1 F1200 X71.55 Y105.491 E113.26045
G0 F6000 X71.55 Y104.925
G1 F1200 X104.074 Y137.449 E114.79028
G0 F6000 X104.639 Y137.449
G1 F1200 X71.55 Y104.359 E116.34671
G0 F6000 X71.55 Y103.794
G1 F1200 X105.205 Y137.449 E117.92973
G0 F6000 X105.771 Y137.449
G1 F1200 X71.55 Y103.228 E119.53939
G0 F6000 X71.55 Y102.662
G1 F1200 X106.336 Y137.449 E121.17564
G0 F6000 X106.902 Y137.449
G1 F1200 X71.55 Y102.097 E122.83849
G0 F6000 X71.55 Y101.531
G1 F1200 X107.468 Y137.449 E124.52796
G0 F6000 X108.033 Y137.449
G1 F1200 X71.55 Y100.965 E126.24403
G0 F6000 X71.55 Y100.399
G1 F1200 X108.599 Y137.449 E127.98672
G0 F6000 X109.165 Y137.449
G1 F1200 X71.55 Y99.834 E129.75602
G0 F6000 X71.55 Y99.268
G1 F1200 X109.73 Y137.449 E131.55191
G0 F6000 X110.296 Y137.449
G1 F1200 X71.55 Y98.702 E133.37443
G0 F6000 X71.55 Y98.137
G1 F1200 X110.862 Y137.449 E135.22355
G0 F6000 X111.428 Y137.449
G1 F1200 X71.55 Y97.571 E137.09928
G0 F6000 X71.55 Y97.005
G1 F1200 X111.993 Y137.449 E139.00162
G0 F6000 X112.559 Y137.449
G1 F1200 X71.55 Y96.44 E140.93056
G0 F6000 X71.55 Y95.874
G1 F1200 X113.125 Y137.449 E142.88612
G0 F6000 X113.69 Y137.449
G1 F1200 X71.55 Y95.308 E144.86828
G0 F6000 X71.55 Y94.743
G1 F1200 X114.256 Y137.449 E146.87704
G0 F6000 X114.822 Y137.449
G1 F1200 X71.55 Y94.177 E148.91242
G0 F6000 X71.55 Y93.611
G1 F1200 X115.387 Y137.449 E150.9744
G0 F6000 X115.953 Y137.449
G1 F1200 X71.55 Y93.046 E153.06298
G0 F6000 X71.55 Y92.48
G1 F1200 X116.519 Y137.449 E155.17819
G0 F6000 X117.084 Y137.449
G1 F1200 X71.55 Y91.914 E157.31999
G0 F6000 X71.55 Y91.349
G1 F1200 X117.65 Y137.449 E159.48839
G0 F6000 X118.216 Y137.449
G1 F1200 X71.55 Y90.783 E161.68342
G0 F6000 X71.55 Y90.217
G1 F1200 X118.781 Y137.449 E163.90504
G0 F6000 X119.347 Y137.449
G1 F1200 X71.55 Y89.651 E166.15329
G0 F6000 X71.55 Y89.086
G1 F1200 X119.913 Y137.449 E168.42814
G0 F6000 X120.478 Y137.449
G1 F1200 X71.55 Y88.52 E170.72959
G0 F6000 X71.55 Y87.954
G1 F1200 X121.044 Y137.449 E173.05766
G0 F6000 X121.61 Y137.449
G1 F1200 X71.55 Y87.389 E175.41232
G0 F6000 X71.55 Y86.823
G1 F1200 X122.176 Y137.449 E177.79362
G0 F6000 X122.741 Y137.449
G1 F1200 X71.55 Y86.257 E180.20151
G0 F6000 X71.55 Y85.692
G1 F1200 X123.307 Y137.449 E182.636
G0 F6000 X123.873 Y137.449
G1 F1200 X71.55 Y85.126 E185.09711
G0 F6000 X71.55 Y84.56
G1 F1200 X124.438 Y137.449 E187.58482
G0 F6000 X125.004 Y137.449
G1 F1200 X71.55 Y83.995 E190.09914
G0 F6000 X71.55 Y83.429
G1 F1200 X125.57 Y137.449 E192.64007
G0 F6000 X126.135 Y137.449
G1 F1200 X71.55 Y82.863 E195.20761
G0 F6000 X71.801 Y82.549
G1 F1200 X126.701 Y137.449 E197.78993
G0 F6000 X127.267 Y137.449
G1 F1200 X72.367 Y82.549 E200.37226
G0 F6000 X72.933 Y82.549
G1 F1200 X127.832 Y137.449 E202.95457
G0 F6000 X128.398 Y137.449
G1 F1200 X73.498 Y82.549 E205.53689
G0 F6000 X74.064 Y82.549
G1 F1200 X128.964 Y137.449 E208.11922
G0 F6000 X129.529 Y137.449
G1 F1200 X74.63 Y82.549 E210.70153
G0 F6000 X75.195 Y82.549
G1 F1200 X130.095 Y137.449 E213.28385
G0 F6000 X130.661 Y137.449
G1 F1200 X75.761 Y82.549 E215.86618
G0 F6000 X76.327 Y82.549
G1 F1200 X131.226 Y137.449 E218.44849
G0 F6000 X131.792 Y137.449
G1 F1200 X76.892 Y82.549 E221.03081
G0 F6000 X77.458 Y82.549
G1 F1200 X132.358 Y137.449 E223.61314
G0 F6000 X132.924 Y137.449
G1 F1200 X78.024 Y82.549 E226.19547
G0 F6000 X78.589 Y82.549
